(Created with emc2b post processor 2015/09/26 19:27)
(Feeds and Speeds set for machining Please select a material to machine)
(tool change to 2.98 mm Carbide Slot Cutter)
T1 M06 G43
G17 G90 G21
G00 Z30 S7000 M03
X11.69 Y11.79
Z30
G01 Z24 F100
X64.709 Y11.79 F199.99
X64.709 Y12.79
X11.69 Y12.79
X11.69 Y13.79
X64.709 Y13.79
X64.709 Y14.79
X11.69 Y14.79
X11.69 Y15.79
X64.709 Y15.79
X64.709 Y16.79
X11.69 Y16.79
X11.69 Y17.79
X64.709 Y17.79
X64.709 Y18.79
X11.69 Y18.79
X11.69 Y19.79
X64.709 Y19.79
X64.709 Y20.79
X11.69 Y20.79
X11.69 Y21.79
X64.709 Y21.79
X64.709 Y22.79
X11.69 Y22.79
X11.69 Y23.79
X64.709 Y23.79
X64.709 Y24.79
X11.69 Y24.79
X11.69 Y25.79
X64.709 Y25.79
X64.709 Y26.79
X11.69 Y26.79
X11.69 Y27.79
X64.709 Y27.79
X64.709 Y28.79
X11.69 Y28.79
X11.69 Y29.79
X64.709 Y29.79
X64.709 Y30.79
X11.69 Y30.79
X11.69 Y31.79
X64.709 Y31.79
X64.709 Y32.79
X11.69 Y32.79
X11.69 Y33.79
X64.709 Y33.79
X64.709 Y34.79
X11.69 Y34.79
X11.69 Y35.79
X64.709 Y35.79
X64.709 Y36.79
X11.69 Y36.79
X11.69 Y37.79
X64.709 Y37.79
X64.709 Y38.79
X11.69 Y38.79
X11.69 Y39.79
X64.709 Y39.79
X64.709 Y40.79
X11.69 Y40.79
X11.69 Y41.79
X64.709 Y41.79
X64.709 Y42.79
X11.69 Y42.79
X11.69 Y43.79
X64.709 Y43.79
X64.709 Y44.79
X11.69 Y44.79
X11.69 Y45.79
X64.709 Y45.79
X64.709 Y46.79
X11.69 Y46.79
X11.69 Y47.79
X64.709 Y47.79
X64.709 Y48.79
X11.69 Y48.79
X11.69 Y49.79
X64.709 Y49.79
X64.709 Y50.79
X11.69 Y50.79
X11.69 Y51.79
X64.709 Y51.79
X64.709 Y52.79
X11.69 Y52.79
X11.69 Y53.79
X64.709 Y53.79
X64.709 Y54.79
X11.69 Y54.79
X11.69 Y55.79
X64.709 Y55.79
X64.709 Y56.79
X11.69 Y56.79
X11.69 Y57.79
X64.709 Y57.79
X64.709 Y58.79
X11.69 Y58.79
X11.69 Y59.79
X64.709 Y59.79
X64.709 Y60.79
X11.69 Y60.79
X11.69 Y61.79
X64.709 Y61.79
X64.709 Y62.79
X11.69 Y62.79
X11.69 Y63.79
X64.709 Y63.79
X64.709 Y64.789
X11.69 Y64.789
X11.69 Y65.789
X64.709 Y65.789
X64.709 Y66.789
X11.69 Y66.789
X11.69 Y67.789
X64.709 Y67.789
X64.709 Y68.789
X11.69 Y68.789
X11.69 Y69.789
X64.709 Y69.789
X64.709 Y70.789
X11.69 Y70.789
X11.69 Y71.789
X64.709 Y71.789
X64.709 Y72.789
X11.69 Y72.789
X11.69 Y73.789
X64.709 Y73.789
X64.709 Y74.789
X11.69 Y74.789
X11.69 Y75.789
X64.709 Y75.789
X64.709 Y76.789
X11.69 Y76.789
X11.69 Y77.789
X64.709 Y77.789
X64.709 Y78.789
X11.69 Y78.789
X11.69 Y79.789
X64.709 Y79.789
X64.709 Y80.789
X11.69 Y80.789
X11.69 Y81.789
X64.709 Y81.789
X64.709 Y82.789
X11.69 Y82.789
X11.69 Y83.789
X64.709 Y83.789
X64.709 Y84.789
X11.69 Y84.789
X11.69 Y85.789
X64.709 Y85.789
X64.709 Y86.789
X11.69 Y86.789
X11.69 Y86.81
X64.709 Y86.81
G00 Z30
Z30
X11.69 Y11.79
Z29
G01 Z23 F100
X64.709 Y11.79 F199.99
X64.709 Y12.79
X11.69 Y12.79
X11.69 Y13.79
X64.709 Y13.79
X64.709 Y14.79
X11.69 Y14.79
X11.69 Y15.79
X64.709 Y15.79
X64.709 Y16.79
X11.69 Y16.79
X11.69 Y17.79
X64.709 Y17.79
X64.709 Y18.79
X11.69 Y18.79
X11.69 Y19.79
X64.709 Y19.79
X64.709 Y20.79
X11.69 Y20.79
X11.69 Y21.79
X64.709 Y21.79
X64.709 Y22.79
X11.69 Y22.79
X11.69 Y23.79
X64.709 Y23.79
X64.709 Y24.79
X11.69 Y24.79
X11.69 Y25.79
X64.709 Y25.79
X64.709 Y26.79
X11.69 Y26.79
X11.69 Y27.79
X64.709 Y27.79
X64.709 Y28.79
X11.69 Y28.79
X11.69 Y29.79
X64.709 Y29.79
X64.709 Y30.79
X11.69 Y30.79
X11.69 Y31.79
X64.709 Y31.79
X64.709 Y32.79
X11.69 Y32.79
X11.69 Y33.79
X64.709 Y33.79
X64.709 Y34.79
X11.69 Y34.79
X11.69 Y35.79
X64.709 Y35.79
X64.709 Y36.79
X11.69 Y36.79
X11.69 Y37.79
X64.709 Y37.79
X64.709 Y38.79
X11.69 Y38.79
X11.69 Y39.79
X64.709 Y39.79
X64.709 Y40.79
X11.69 Y40.79
X11.69 Y41.79
X64.709 Y41.79
X64.709 Y42.79
X11.69 Y42.79
X11.69 Y43.79
X64.709 Y43.79
X64.709 Y44.79
X11.69 Y44.79
X11.69 Y45.79
X64.709 Y45.79
X64.709 Y46.79
X11.69 Y46.79
X11.69 Y47.79
X64.709 Y47.79
X64.709 Y48.79
X11.69 Y48.79
X11.69 Y49.79
X64.709 Y49.79
X64.709 Y50.79
X11.69 Y50.79
X11.69 Y51.79
X64.709 Y51.79
X64.709 Y52.79
X11.69 Y52.79
X11.69 Y53.79
X64.709 Y53.79
X64.709 Y54.79
X11.69 Y54.79
X11.69 Y55.79
X64.709 Y55.79
X64.709 Y56.79
X11.69 Y56.79
X11.69 Y57.79
X64.709 Y57.79
X64.709 Y58.79
X11.69 Y58.79
X11.69 Y59.79
X64.709 Y59.79
X64.709 Y60.79
X11.69 Y60.79
X11.69 Y61.79
X64.709 Y61.79
X64.709 Y62.79
X11.69 Y62.79
X11.69 Y63.79
X64.709 Y63.79
X64.709 Y64.789
X11.69 Y64.789
X11.69 Y65.789
X64.709 Y65.789
X64.709 Y66.789
X11.69 Y66.789
X11.69 Y67.789
X64.709 Y67.789
X64.709 Y68.789
X11.69 Y68.789
X11.69 Y69.789
X64.709 Y69.789
X64.709 Y70.789
X11.69 Y70.789
X11.69 Y71.789
X64.709 Y71.789
X64.709 Y72.789
X11.69 Y72.789
X11.69 Y73.789
X64.709 Y73.789
X64.709 Y74.789
X11.69 Y74.789
X11.69 Y75.789
X64.709 Y75.789
X64.709 Y76.789
X11.69 Y76.789
X11.69 Y77.789
X64.709 Y77.789
X64.709 Y78.789
X11.69 Y78.789
X11.69 Y79.789
X64.709 Y79.789
X64.709 Y80.789
X11.69 Y80.789
X11.69 Y81.789
X64.709 Y81.789
X64.709 Y82.789
X11.69 Y82.789
X11.69 Y83.789
X64.709 Y83.789
X64.709 Y84.789
X11.69 Y84.789
X11.69 Y85.789
X64.709 Y85.789
X64.709 Y86.789
X11.69 Y86.789
X11.69 Y86.81
X64.709 Y86.81
G00 Z30
Z30
X11.69 Y11.79
Z28
G01 Z22 F100
X64.709 Y11.79 F199.99
X64.709 Y12.79
X11.69 Y12.79
X11.69 Y13.79
X64.709 Y13.79
X64.709 Y14.79
X11.69 Y14.79
X11.69 Y15.79
X64.709 Y15.79
X64.709 Y16.79
X11.69 Y16.79
X11.69 Y17.79
X64.709 Y17.79
X64.709 Y18.79
X11.69 Y18.79
X11.69 Y19.79
X64.709 Y19.79
X64.709 Y20.79
X11.69 Y20.79
X11.69 Y21.79
X64.709 Y21.79
X64.709 Y22.79
X11.69 Y22.79
X11.69 Y23.79
X64.709 Y23.79
X64.709 Y24.79
X11.69 Y24.79
X11.69 Y25.79
X64.709 Y25.79
X64.709 Y26.79
X11.69 Y26.79
X11.69 Y27.79
X64.709 Y27.79
X64.709 Y28.79
X11.69 Y28.79
X11.69 Y29.79
X64.709 Y29.79
X64.709 Y30.79
X11.69 Y30.79
X11.69 Y31.79
X64.709 Y31.79
X64.709 Y32.79
X11.69 Y32.79
X11.69 Y33.79
X64.709 Y33.79
X64.709 Y34.79
X11.69 Y34.79
X11.69 Y35.79
X64.709 Y35.79
X64.709 Y36.79
X11.69 Y36.79
X11.69 Y37.79
X64.709 Y37.79
X64.709 Y38.79
X11.69 Y38.79
X11.69 Y39.79
X64.709 Y39.79
X64.709 Y40.79
X11.69 Y40.79
X11.69 Y41.79
X64.709 Y41.79
X64.709 Y42.79
X11.69 Y42.79
X11.69 Y43.79
X64.709 Y43.79
X64.709 Y44.79
X11.69 Y44.79
X11.69 Y45.79
X64.709 Y45.79
X64.709 Y46.79
X11.69 Y46.79
X11.69 Y47.79
X64.709 Y47.79
X64.709 Y48.79
X11.69 Y48.79
X11.69 Y49.79
X64.709 Y49.79
X64.709 Y50.79
X11.69 Y50.79
X11.69 Y51.79
X64.709 Y51.79
X64.709 Y52.79
X11.69 Y52.79
X11.69 Y53.79
X64.709 Y53.79
X64.709 Y54.79
X11.69 Y54.79
X11.69 Y55.79
X64.709 Y55.79
X64.709 Y56.79
X11.69 Y56.79
X11.69 Y57.79
X64.709 Y57.79
X64.709 Y58.79
X11.69 Y58.79
X11.69 Y59.79
X64.709 Y59.79
X64.709 Y60.79
X11.69 Y60.79
X11.69 Y61.79
X64.709 Y61.79
X64.709 Y62.79
X11.69 Y62.79
X11.69 Y63.79
X64.709 Y63.79
X64.709 Y64.789
X11.69 Y64.789
X11.69 Y65.789
X64.709 Y65.789
X64.709 Y66.789
X11.69 Y66.789
X11.69 Y67.789
X64.709 Y67.789
X64.709 Y68.789
X11.69 Y68.789
X11.69 Y69.789
X64.709 Y69.789
X64.709 Y70.789
X11.69 Y70.789
X11.69 Y71.789
X64.709 Y71.789
X64.709 Y72.789
X11.69 Y72.789
X11.69 Y73.789
X64.709 Y73.789
X64.709 Y74.789
X11.69 Y74.789
X11.69 Y75.789
X64.709 Y75.789
X64.709 Y76.789
X11.69 Y76.789
X11.69 Y77.789
X64.709 Y77.789
X64.709 Y78.789
X11.69 Y78.789
X11.69 Y79.789
X64.709 Y79.789
X64.709 Y80.789
X11.69 Y80.789
X11.69 Y81.789
X64.709 Y81.789
X64.709 Y82.789
X11.69 Y82.789
X11.69 Y83.789
X64.709 Y83.789
X64.709 Y84.789
X11.69 Y84.789
X11.69 Y85.789
X64.709 Y85.789
X64.709 Y86.789
X11.69 Y86.789
X11.69 Y86.81
X64.709 Y86.81
G00 Z30
Z30
X11.69 Y11.79
Z27
G01 Z21 F100
X64.709 Y11.79 F199.99
X64.709 Y12.79
X11.69 Y12.79
X11.69 Y13.79
X64.709 Y13.79
X64.709 Y14.79
X11.69 Y14.79
X11.69 Y15.79
X64.709 Y15.79
X64.709 Y16.79
X11.69 Y16.79
X11.69 Y17.79
X64.709 Y17.79
X64.709 Y18.79
X11.69 Y18.79
X11.69 Y19.79
X64.709 Y19.79
X64.709 Y20.79
X11.69 Y20.79
X11.69 Y21.79
X64.709 Y21.79
X64.709 Y22.79
X11.69 Y22.79
X11.69 Y23.79
X64.709 Y23.79
X64.709 Y24.79
X11.69 Y24.79
X11.69 Y25.79
X64.709 Y25.79
X64.709 Y26.79
X11.69 Y26.79
X11.69 Y27.79
X64.709 Y27.79
X64.709 Y28.79
X11.69 Y28.79
X11.69 Y29.79
X64.709 Y29.79
X64.709 Y30.79
X11.69 Y30.79
X11.69 Y31.79
X64.709 Y31.79
X64.709 Y32.79
X11.69 Y32.79
X11.69 Y33.79
X64.709 Y33.79
X64.709 Y34.79
X11.69 Y34.79
X11.69 Y35.79
X64.709 Y35.79
X64.709 Y36.79
X11.69 Y36.79
X11.69 Y37.79
X64.709 Y37.79
X64.709 Y38.79
X11.69 Y38.79
X11.69 Y39.79
X64.709 Y39.79
X64.709 Y40.79
X11.69 Y40.79
X11.69 Y41.79
X64.709 Y41.79
X64.709 Y42.79
X11.69 Y42.79
X11.69 Y43.79
X64.709 Y43.79
X64.709 Y44.79
X11.69 Y44.79
X11.69 Y45.79
X64.709 Y45.79
X64.709 Y46.79
X11.69 Y46.79
X11.69 Y47.79
X64.709 Y47.79
X64.709 Y48.79
X11.69 Y48.79
X11.69 Y49.79
X64.709 Y49.79
X64.709 Y50.79
X11.69 Y50.79
X11.69 Y51.79
X64.709 Y51.79
X64.709 Y52.79
X11.69 Y52.79
X11.69 Y53.79
X64.709 Y53.79
X64.709 Y54.79
X11.69 Y54.79
X11.69 Y55.79
X64.709 Y55.79
X64.709 Y56.79
X11.69 Y56.79
X11.69 Y57.79
X64.709 Y57.79
X64.709 Y58.79
X11.69 Y58.79
X11.69 Y59.79
X64.709 Y59.79
X64.709 Y60.79
X11.69 Y60.79
X11.69 Y61.79
X64.709 Y61.79
X64.709 Y62.79
X11.69 Y62.79
X11.69 Y63.79
X64.709 Y63.79
X64.709 Y64.789
X11.69 Y64.789
X11.69 Y65.789
X64.709 Y65.789
X64.709 Y66.789
X11.69 Y66.789
X11.69 Y67.789
X64.709 Y67.789
X64.709 Y68.789
X11.69 Y68.789
X11.69 Y69.789
X64.709 Y69.789
X64.709 Y70.789
X11.69 Y70.789
X11.69 Y71.789
X64.709 Y71.789
X64.709 Y72.789
X11.69 Y72.789
X11.69 Y73.789
X64.709 Y73.789
X64.709 Y74.789
X11.69 Y74.789
X11.69 Y75.789
X64.709 Y75.789
X64.709 Y76.789
X11.69 Y76.789
X11.69 Y77.789
X64.709 Y77.789
X64.709 Y78.789
X11.69 Y78.789
X11.69 Y79.789
X64.709 Y79.789
X64.709 Y80.789
X11.69 Y80.789
X11.69 Y81.789
X64.709 Y81.789
X64.709 Y82.789
X11.69 Y82.789
X11.69 Y83.789
X64.709 Y83.789
X64.709 Y84.789
X11.69 Y84.789
X11.69 Y85.789
X64.709 Y85.789
X64.709 Y86.789
X11.69 Y86.789
X11.69 Y86.81
X64.709 Y86.81
G00 Z30
Z30
X11.69 Y11.79
Z26
G01 Z20 F100
X64.709 Y11.79 F199.99
X64.709 Y12.79
X11.69 Y12.79
X11.69 Y13.79
X64.709 Y13.79
X64.709 Y14.79
X11.69 Y14.79
X11.69 Y15.79
X64.709 Y15.79
X64.709 Y16.79
X11.69 Y16.79
X11.69 Y17.79
X64.709 Y17.79
X64.709 Y18.79
X11.69 Y18.79
X11.69 Y19.79
X64.709 Y19.79
X64.709 Y20.79
X11.69 Y20.79
X11.69 Y21.79
X64.709 Y21.79
X64.709 Y22.79
X11.69 Y22.79
X11.69 Y23.79
X64.709 Y23.79
X64.709 Y24.79
X11.69 Y24.79
X11.69 Y25.79
X64.709 Y25.79
X64.709 Y26.79
X11.69 Y26.79
X11.69 Y27.79
X64.709 Y27.79
X64.709 Y28.79
X11.69 Y28.79
X11.69 Y29.79
X64.709 Y29.79
X64.709 Y30.79
X11.69 Y30.79
X11.69 Y31.79
X64.709 Y31.79
X64.709 Y32.79
X11.69 Y32.79
X11.69 Y33.79
X64.709 Y33.79
X64.709 Y34.79
X11.69 Y34.79
X11.69 Y35.79
X64.709 Y35.79
X64.709 Y36.79
X11.69 Y36.79
X11.69 Y37.79
X64.709 Y37.79
X64.709 Y38.79
X11.69 Y38.79
X11.69 Y39.79
X64.709 Y39.79
X64.709 Y40.79
X11.69 Y40.79
X11.69 Y41.79
X64.709 Y41.79
X64.709 Y42.79
X11.69 Y42.79
X11.69 Y43.79
X64.709 Y43.79
X64.709 Y44.79
X11.69 Y44.79
X11.69 Y45.79
X64.709 Y45.79
X64.709 Y46.79
X11.69 Y46.79
X11.69 Y47.79
X64.709 Y47.79
X64.709 Y48.79
X11.69 Y48.79
X11.69 Y49.79
X64.709 Y49.79
X64.709 Y50.79
X11.69 Y50.79
X11.69 Y51.79
X64.709 Y51.79
X64.709 Y52.79
X11.69 Y52.79
X11.69 Y53.79
X64.709 Y53.79
X64.709 Y54.79
X11.69 Y54.79
X11.69 Y55.79
X64.709 Y55.79
X64.709 Y56.79
X11.69 Y56.79
X11.69 Y57.79
X64.709 Y57.79
X64.709 Y58.79
X11.69 Y58.79
X11.69 Y59.79
X64.709 Y59.79
X64.709 Y60.79
X11.69 Y60.79
X11.69 Y61.79
X64.709 Y61.79
X64.709 Y62.79
X11.69 Y62.79
X11.69 Y63.79
X64.709 Y63.79
X64.709 Y64.789
X11.69 Y64.789
X11.69 Y65.789
X64.709 Y65.789
X64.709 Y66.789
X11.69 Y66.789
X11.69 Y67.789
X64.709 Y67.789
X64.709 Y68.789
X11.69 Y68.789
X11.69 Y69.789
X64.709 Y69.789
X64.709 Y70.789
X11.69 Y70.789
X11.69 Y71.789
X64.709 Y71.789
X64.709 Y72.789
X11.69 Y72.789
X11.69 Y73.789
X64.709 Y73.789
X64.709 Y74.789
X11.69 Y74.789
X11.69 Y75.789
X64.709 Y75.789
X64.709 Y76.789
X11.69 Y76.789
X11.69 Y77.789
X64.709 Y77.789
X64.709 Y78.789
X11.69 Y78.789
X11.69 Y79.789
X64.709 Y79.789
X64.709 Y80.789
X11.69 Y80.789
X11.69 Y81.789
X64.709 Y81.789
X64.709 Y82.789
X11.69 Y82.789
X11.69 Y83.789
X64.709 Y83.789
X64.709 Y84.789
X11.69 Y84.789
X11.69 Y85.789
X64.709 Y85.789
X64.709 Y86.789
X11.69 Y86.789
X11.69 Y86.81
X64.709 Y86.81
G00 Z30
Z30
Z30 S7000 M03
X11.69 Y11.79
Z25
G01 Z19 F100
X64.709 Y11.79 F199.99
X64.709 Y12.79
X11.69 Y12.79
X11.69 Y13.79
X64.709 Y13.79
X64.709 Y14.79
X11.69 Y14.79
X11.69 Y15.79
X64.709 Y15.79
X64.709 Y16.79
X11.69 Y16.79
X11.69 Y17.79
X64.709 Y17.79
X64.709 Y18.79
X11.69 Y18.79
X11.69 Y19.79
X64.709 Y19.79
X64.709 Y20.79
X11.69 Y20.79
X11.69 Y21.79
X64.709 Y21.79
X64.709 Y22.79
X11.69 Y22.79
X11.69 Y23.79
X64.709 Y23.79
X64.709 Y24.79
X11.69 Y24.79
X11.69 Y25.79
X64.709 Y25.79
X64.709 Y26.79
X11.69 Y26.79
X11.69 Y27.79
X64.709 Y27.79
X64.709 Y28.79
X11.69 Y28.79
X11.69 Y29.79
X64.709 Y29.79
X64.709 Y30.79
X11.69 Y30.79
X11.69 Y31.79
X64.709 Y31.79
X64.709 Y32.79
X11.69 Y32.79
X11.69 Y33.79
X64.709 Y33.79
X64.709 Y34.79
X11.69 Y34.79
X11.69 Y35.79
X64.709 Y35.79
X64.709 Y36.79
X11.69 Y36.79
X11.69 Y37.79
X64.709 Y37.79
X64.709 Y38.79
X11.69 Y38.79
X11.69 Y39.79
X64.709 Y39.79
X64.709 Y40.79
X11.69 Y40.79
X11.69 Y41.79
X64.709 Y41.79
X64.709 Y42.79
X11.69 Y42.79
X11.69 Y43.79
X64.709 Y43.79
X64.709 Y44.79
X11.69 Y44.79
X11.69 Y45.79
X64.709 Y45.79
X64.709 Y46.79
X11.69 Y46.79
X11.69 Y47.79
X64.709 Y47.79
X64.709 Y48.79
X11.69 Y48.79
X11.69 Y49.79
X64.709 Y49.79
X64.709 Y50.79
X11.69 Y50.79
X11.69 Y51.79
X64.709 Y51.79
X64.709 Y52.79
X11.69 Y52.79
X11.69 Y53.79
X64.709 Y53.79
X64.709 Y54.79
X11.69 Y54.79
X11.69 Y55.79
X64.709 Y55.79
X64.709 Y56.79
X11.69 Y56.79
X11.69 Y57.79
X64.709 Y57.79
X64.709 Y58.79
X11.69 Y58.79
X11.69 Y59.79
X64.709 Y59.79
X64.709 Y60.79
X11.69 Y60.79
X11.69 Y61.79
X64.709 Y61.79
X64.709 Y62.79
X11.69 Y62.79
X11.69 Y63.79
X64.709 Y63.79
X64.709 Y64.709
X11.69 Y64.709
X11.69 Y63.79
X64.709 Y63.79
X64.709 Y64.709
G00 Z30
Z30
X11.69 Y11.79
Z24
G01 Z18 F100
X64.709 Y11.79 F199.99
X64.709 Y12.79
X11.69 Y12.79
X11.69 Y13.79
X64.709 Y13.79
X64.709 Y14.79
X11.69 Y14.79
X11.69 Y15.79
X64.709 Y15.79
X64.709 Y16.79
X11.69 Y16.79
X11.69 Y17.79
X64.709 Y17.79
X64.709 Y18.79
X11.69 Y18.79
X11.69 Y19.79
X64.709 Y19.79
X64.709 Y20.79
X11.69 Y20.79
X11.69 Y21.79
X64.709 Y21.79
X64.709 Y22.79
X11.69 Y22.79
X11.69 Y23.79
X64.709 Y23.79
X64.709 Y24.79
X11.69 Y24.79
X11.69 Y25.79
X64.709 Y25.79
X64.709 Y26.79
X11.69 Y26.79
X11.69 Y27.79
X64.709 Y27.79
X64.709 Y28.79
X11.69 Y28.79
X11.69 Y29.79
X64.709 Y29.79
X64.709 Y30.79
X11.69 Y30.79
X11.69 Y31.79
X64.709 Y31.79
X64.709 Y32.79
X11.69 Y32.79
X11.69 Y33.79
X64.709 Y33.79
X64.709 Y34.79
X11.69 Y34.79
X11.69 Y35.79
X64.709 Y35.79
X64.709 Y36.79
X11.69 Y36.79
X11.69 Y37.79
X64.709 Y37.79
X64.709 Y38.79
X11.69 Y38.79
X11.69 Y39.79
X64.709 Y39.79
X64.709 Y40.79
X11.69 Y40.79
X11.69 Y41.79
X64.709 Y41.79
X64.709 Y42.79
X11.69 Y42.79
X11.69 Y43.79
X64.709 Y43.79
X64.709 Y44.79
X11.69 Y44.79
X11.69 Y45.79
X64.709 Y45.79
X64.709 Y46.79
X11.69 Y46.79
X11.69 Y47.79
X64.709 Y47.79
X64.709 Y48.79
X11.69 Y48.79
X11.69 Y49.79
X64.709 Y49.79
X64.709 Y50.79
X11.69 Y50.79
X11.69 Y51.79
X64.709 Y51.79
X64.709 Y52.79
X11.69 Y52.79
X11.69 Y53.79
X64.709 Y53.79
X64.709 Y54.79
X11.69 Y54.79
X11.69 Y55.79
X64.709 Y55.79
X64.709 Y56.79
X11.69 Y56.79
X11.69 Y57.79
X64.709 Y57.79
X64.709 Y58.79
X11.69 Y58.79
X11.69 Y59.79
X64.709 Y59.79
X64.709 Y60.79
X11.69 Y60.79
X11.69 Y61.79
X64.709 Y61.79
X64.709 Y62.79
X11.69 Y62.79
X11.69 Y63.79
X64.709 Y63.79
X64.709 Y64.709
X11.69 Y64.709
X11.69 Y63.79
X64.709 Y63.79
X64.709 Y64.709
G00 Z30
Z30
X11.69 Y11.79
Z23
G01 Z17 F100
X64.709 Y11.79 F199.99
X64.709 Y12.79
X11.69 Y12.79
X11.69 Y13.79
X64.709 Y13.79
X64.709 Y14.79
X11.69 Y14.79
X11.69 Y15.79
X64.709 Y15.79
X64.709 Y16.79
X11.69 Y16.79
X11.69 Y17.79
X64.709 Y17.79
X64.709 Y18.79
X11.69 Y18.79
X11.69 Y19.79
X64.709 Y19.79
X64.709 Y20.79
X11.69 Y20.79
X11.69 Y21.79
X64.709 Y21.79
X64.709 Y22.79
X11.69 Y22.79
X11.69 Y23.79
X64.709 Y23.79
X64.709 Y24.79
X11.69 Y24.79
X11.69 Y25.79
X64.709 Y25.79
X64.709 Y26.79
X11.69 Y26.79
X11.69 Y27.79
X64.709 Y27.79
X64.709 Y28.79
X11.69 Y28.79
X11.69 Y29.79
X64.709 Y29.79
X64.709 Y30.79
X11.69 Y30.79
X11.69 Y31.79
X64.709 Y31.79
X64.709 Y32.79
X11.69 Y32.79
X11.69 Y33.79
X64.709 Y33.79
X64.709 Y34.79
X11.69 Y34.79
X11.69 Y35.79
X64.709 Y35.79
X64.709 Y36.79
X11.69 Y36.79
X11.69 Y37.79
X64.709 Y37.79
X64.709 Y38.79
X11.69 Y38.79
X11.69 Y39.79
X64.709 Y39.79
X64.709 Y40.79
X11.69 Y40.79
X11.69 Y41.79
X64.709 Y41.79
X64.709 Y42.79
X11.69 Y42.79
X11.69 Y43.79
X64.709 Y43.79
X64.709 Y44.79
X11.69 Y44.79
X11.69 Y45.79
X64.709 Y45.79
X64.709 Y46.79
X11.69 Y46.79
X11.69 Y47.79
X64.709 Y47.79
X64.709 Y48.79
X11.69 Y48.79
X11.69 Y49.79
X64.709 Y49.79
X64.709 Y50.79
X11.69 Y50.79
X11.69 Y51.79
X64.709 Y51.79
X64.709 Y52.79
X11.69 Y52.79
X11.69 Y53.79
X64.709 Y53.79
X64.709 Y54.79
X11.69 Y54.79
X11.69 Y55.79
X64.709 Y55.79
X64.709 Y56.79
X11.69 Y56.79
X11.69 Y57.79
X64.709 Y57.79
X64.709 Y58.79
X11.69 Y58.79
X11.69 Y59.79
X64.709 Y59.79
X64.709 Y60.79
X11.69 Y60.79
X11.69 Y61.79
X64.709 Y61.79
X64.709 Y62.79
X11.69 Y62.79
X11.69 Y63.79
X64.709 Y63.79
X64.709 Y64.709
X11.69 Y64.709
X11.69 Y63.79
X64.709 Y63.79
X64.709 Y64.709
G00 Z30
Z30
X11.69 Y11.79
Z22
G01 Z16 F100
X64.709 Y11.79 F199.99
X64.709 Y12.79
X11.69 Y12.79
X11.69 Y13.79
X64.709 Y13.79
X64.709 Y14.79
X11.69 Y14.79
X11.69 Y15.79
X64.709 Y15.79
X64.709 Y16.79
X11.69 Y16.79
X11.69 Y17.79
X64.709 Y17.79
X64.709 Y18.79
X11.69 Y18.79
X11.69 Y19.79
X64.709 Y19.79
X64.709 Y20.79
X11.69 Y20.79
X11.69 Y21.79
X64.709 Y21.79
X64.709 Y22.79
X11.69 Y22.79
X11.69 Y23.79
X64.709 Y23.79
X64.709 Y24.79
X11.69 Y24.79
X11.69 Y25.79
X64.709 Y25.79
X64.709 Y26.79
X11.69 Y26.79
X11.69 Y27.79
X64.709 Y27.79
X64.709 Y28.79
X11.69 Y28.79
X11.69 Y29.79
X64.709 Y29.79
X64.709 Y30.79
X11.69 Y30.79
X11.69 Y31.79
X64.709 Y31.79
X64.709 Y32.79
X11.69 Y32.79
X11.69 Y33.79
X64.709 Y33.79
X64.709 Y34.79
X11.69 Y34.79
X11.69 Y35.79
X64.709 Y35.79
X64.709 Y36.79
X11.69 Y36.79
X11.69 Y37.79
X64.709 Y37.79
X64.709 Y38.79
X11.69 Y38.79
X11.69 Y39.79
X64.709 Y39.79
X64.709 Y40.79
X11.69 Y40.79
X11.69 Y41.79
X64.709 Y41.79
X64.709 Y42.79
X11.69 Y42.79
X11.69 Y43.79
X64.709 Y43.79
X64.709 Y44.79
X11.69 Y44.79
X11.69 Y45.79
X64.709 Y45.79
X64.709 Y46.79
X11.69 Y46.79
X11.69 Y47.79
X64.709 Y47.79
X64.709 Y48.79
X11.69 Y48.79
X11.69 Y49.79
X64.709 Y49.79
X64.709 Y50.79
X11.69 Y50.79
X11.69 Y51.79
X64.709 Y51.79
X64.709 Y52.79
X11.69 Y52.79
X11.69 Y53.79
X64.709 Y53.79
X64.709 Y54.79
X11.69 Y54.79
X11.69 Y55.79
X64.709 Y55.79
X64.709 Y56.79
X11.69 Y56.79
X11.69 Y57.79
X64.709 Y57.79
X64.709 Y58.79
X11.69 Y58.79
X11.69 Y59.79
X64.709 Y59.79
X64.709 Y60.79
X11.69 Y60.79
X11.69 Y61.79
X64.709 Y61.79
X64.709 Y62.79
X11.69 Y62.79
X11.69 Y63.79
X64.709 Y63.79
X64.709 Y64.709
X11.69 Y64.709
X11.69 Y63.79
X64.709 Y63.79
X64.709 Y64.709
G00 Z30
Z30
X11.69 Y11.79
Z21
G01 Z15 F100
X64.709 Y11.79 F199.99
X64.709 Y12.79
X11.69 Y12.79
X11.69 Y13.79
X64.709 Y13.79
X64.709 Y14.79
X11.69 Y14.79
X11.69 Y15.79
X64.709 Y15.79
X64.709 Y16.79
X11.69 Y16.79
X11.69 Y17.79
X64.709 Y17.79
X64.709 Y18.79
X11.69 Y18.79
X11.69 Y19.79
X64.709 Y19.79
X64.709 Y20.79
X11.69 Y20.79
X11.69 Y21.79
X64.709 Y21.79
X64.709 Y22.79
X11.69 Y22.79
X11.69 Y23.79
X64.709 Y23.79
X64.709 Y24.79
X11.69 Y24.79
X11.69 Y25.79
X64.709 Y25.79
X64.709 Y26.79
X11.69 Y26.79
X11.69 Y27.79
X64.709 Y27.79
X64.709 Y28.79
X11.69 Y28.79
X11.69 Y29.79
X64.709 Y29.79
X64.709 Y30.79
X11.69 Y30.79
X11.69 Y31.79
X64.709 Y31.79
X64.709 Y32.79
X11.69 Y32.79
X11.69 Y33.79
X64.709 Y33.79
X64.709 Y34.79
X11.69 Y34.79
X11.69 Y35.79
X64.709 Y35.79
X64.709 Y36.79
X11.69 Y36.79
X11.69 Y37.79
X64.709 Y37.79
X64.709 Y38.79
X11.69 Y38.79
X11.69 Y39.79
X64.709 Y39.79
X64.709 Y40.79
X11.69 Y40.79
X11.69 Y41.79
X64.709 Y41.79
X64.709 Y42.79
X11.69 Y42.79
X11.69 Y43.79
X64.709 Y43.79
X64.709 Y44.79
X11.69 Y44.79
X11.69 Y45.79
X64.709 Y45.79
X64.709 Y46.79
X11.69 Y46.79
X11.69 Y47.79
X64.709 Y47.79
X64.709 Y48.79
X11.69 Y48.79
X11.69 Y49.79
X64.709 Y49.79
X64.709 Y50.79
X11.69 Y50.79
X11.69 Y51.79
X64.709 Y51.79
X64.709 Y52.79
X11.69 Y52.79
X11.69 Y53.79
X64.709 Y53.79
X64.709 Y54.79
X11.69 Y54.79
X11.69 Y55.79
X64.709 Y55.79
X64.709 Y56.79
X11.69 Y56.79
X11.69 Y57.79
X64.709 Y57.79
X64.709 Y58.79
X11.69 Y58.79
X11.69 Y59.79
X64.709 Y59.79
X64.709 Y60.79
X11.69 Y60.79
X11.69 Y61.79
X64.709 Y61.79
X64.709 Y62.79
X11.69 Y62.79
X11.69 Y63.79
X64.709 Y63.79
X64.709 Y64.709
X11.69 Y64.709
X11.69 Y63.79
X64.709 Y63.79
X64.709 Y64.709
G00 Z30
Z30
X11.69 Y11.79
Z20
G01 Z14 F100
X64.709 Y11.79 F199.99
X64.709 Y12.79
X11.69 Y12.79
X11.69 Y13.79
X64.709 Y13.79
X64.709 Y14.79
X11.69 Y14.79
X11.69 Y15.79
X64.709 Y15.79
X64.709 Y16.79
X11.69 Y16.79
X11.69 Y17.79
X64.709 Y17.79
X64.709 Y18.79
X11.69 Y18.79
X11.69 Y19.79
X64.709 Y19.79
X64.709 Y20.79
X11.69 Y20.79
X11.69 Y21.79
X64.709 Y21.79
X64.709 Y22.79
X11.69 Y22.79
X11.69 Y23.79
X64.709 Y23.79
X64.709 Y24.79
X11.69 Y24.79
X11.69 Y25.79
X64.709 Y25.79
X64.709 Y26.79
X11.69 Y26.79
X11.69 Y27.79
X64.709 Y27.79
X64.709 Y28.79
X11.69 Y28.79
X11.69 Y29.79
X64.709 Y29.79
X64.709 Y30.79
X11.69 Y30.79
X11.69 Y31.79
X64.709 Y31.79
X64.709 Y32.79
X11.69 Y32.79
X11.69 Y33.79
X64.709 Y33.79
X64.709 Y34.79
X11.69 Y34.79
X11.69 Y35.79
X64.709 Y35.79
X64.709 Y36.79
X11.69 Y36.79
X11.69 Y37.79
X64.709 Y37.79
X64.709 Y38.79
X11.69 Y38.79
X11.69 Y39.79
X64.709 Y39.79
X64.709 Y40.79
X11.69 Y40.79
X11.69 Y41.79
X64.709 Y41.79
X64.709 Y42.79
X11.69 Y42.79
X11.69 Y43.79
X64.709 Y43.79
X64.709 Y44.79
X11.69 Y44.79
X11.69 Y45.79
X64.709 Y45.79
X64.709 Y46.79
X11.69 Y46.79
X11.69 Y47.79
X64.709 Y47.79
X64.709 Y48.79
X11.69 Y48.79
X11.69 Y49.79
X64.709 Y49.79
X64.709 Y50.79
X11.69 Y50.79
X11.69 Y51.79
X64.709 Y51.79
X64.709 Y52.79
X11.69 Y52.79
X11.69 Y53.79
X64.709 Y53.79
X64.709 Y54.79
X11.69 Y54.79
X11.69 Y55.79
X64.709 Y55.79
X64.709 Y56.79
X11.69 Y56.79
X11.69 Y57.79
X64.709 Y57.79
X64.709 Y58.79
X11.69 Y58.79
X11.69 Y59.79
X64.709 Y59.79
X64.709 Y60.79
X11.69 Y60.79
X11.69 Y61.79
X64.709 Y61.79
X64.709 Y62.79
X11.69 Y62.79
X11.69 Y63.79
X64.709 Y63.79
X64.709 Y64.709
X11.69 Y64.709
X11.69 Y63.79
X64.709 Y63.79
X64.709 Y64.709
G00 Z30
Z30
X11.69 Y11.79
Z19
G01 Z13 F100
X64.709 Y11.79 F199.99
X64.709 Y12.79
X11.69 Y12.79
X11.69 Y13.79
X64.709 Y13.79
X64.709 Y14.79
X11.69 Y14.79
X11.69 Y15.79
X64.709 Y15.79
X64.709 Y16.79
X11.69 Y16.79
X11.69 Y17.79
X64.709 Y17.79
X64.709 Y18.79
X11.69 Y18.79
X11.69 Y19.79
X64.709 Y19.79
X64.709 Y20.79
X11.69 Y20.79
X11.69 Y21.79
X64.709 Y21.79
X64.709 Y22.79
X11.69 Y22.79
X11.69 Y23.79
X64.709 Y23.79
X64.709 Y24.79
X11.69 Y24.79
X11.69 Y25.79
X64.709 Y25.79
X64.709 Y26.79
X11.69 Y26.79
X11.69 Y27.79
X64.709 Y27.79
X64.709 Y28.79
X11.69 Y28.79
X11.69 Y29.79
X64.709 Y29.79
X64.709 Y30.79
X11.69 Y30.79
X11.69 Y31.79
X64.709 Y31.79
X64.709 Y32.79
X11.69 Y32.79
X11.69 Y33.79
X64.709 Y33.79
X64.709 Y34.79
X11.69 Y34.79
X11.69 Y35.79
X64.709 Y35.79
X64.709 Y36.79
X11.69 Y36.79
X11.69 Y37.79
X64.709 Y37.79
X64.709 Y38.79
X11.69 Y38.79
X11.69 Y39.79
X64.709 Y39.79
X64.709 Y40.79
X11.69 Y40.79
X11.69 Y41.79
X64.709 Y41.79
X64.709 Y42.79
X11.69 Y42.79
X11.69 Y43.79
X64.709 Y43.79
X64.709 Y44.79
X11.69 Y44.79
X11.69 Y45.79
X64.709 Y45.79
X64.709 Y46.79
X11.69 Y46.79
X11.69 Y47.79
X64.709 Y47.79
X64.709 Y48.79
X11.69 Y48.79
X11.69 Y49.79
X64.709 Y49.79
X64.709 Y50.79
X11.69 Y50.79
X11.69 Y51.79
X64.709 Y51.79
X64.709 Y52.79
X11.69 Y52.79
X11.69 Y53.79
X64.709 Y53.79
X64.709 Y54.79
X11.69 Y54.79
X11.69 Y55.79
X64.709 Y55.79
X64.709 Y56.79
X11.69 Y56.79
X11.69 Y57.79
X64.709 Y57.79
X64.709 Y58.79
X11.69 Y58.79
X11.69 Y59.79
X64.709 Y59.79
X64.709 Y60.79
X11.69 Y60.79
X11.69 Y61.79
X64.709 Y61.79
X64.709 Y62.79
X11.69 Y62.79
X11.69 Y63.79
X64.709 Y63.79
X64.709 Y64.709
X11.69 Y64.709
X11.69 Y63.79
X64.709 Y63.79
X64.709 Y64.709
G00 Z30
Z30
X11.69 Y11.79
Z18
G01 Z12 F100
X64.709 Y11.79 F199.99
X64.709 Y12.79
X11.69 Y12.79
X11.69 Y13.79
X64.709 Y13.79
X64.709 Y14.79
X11.69 Y14.79
X11.69 Y15.79
X64.709 Y15.79
X64.709 Y16.79
X11.69 Y16.79
X11.69 Y17.79
X64.709 Y17.79
X64.709 Y18.79
X11.69 Y18.79
X11.69 Y19.79
X64.709 Y19.79
X64.709 Y20.79
X11.69 Y20.79
X11.69 Y21.79
X64.709 Y21.79
X64.709 Y22.79
X11.69 Y22.79
X11.69 Y23.79
X64.709 Y23.79
X64.709 Y24.79
X11.69 Y24.79
X11.69 Y25.79
X64.709 Y25.79
X64.709 Y26.79
X11.69 Y26.79
X11.69 Y27.79
X64.709 Y27.79
X64.709 Y28.79
X11.69 Y28.79
X11.69 Y29.79
X64.709 Y29.79
X64.709 Y30.79
X11.69 Y30.79
X11.69 Y31.79
X64.709 Y31.79
X64.709 Y32.79
X11.69 Y32.79
X11.69 Y33.79
X64.709 Y33.79
X64.709 Y34.79
X11.69 Y34.79
X11.69 Y35.79
X64.709 Y35.79
X64.709 Y36.79
X11.69 Y36.79
X11.69 Y37.79
X64.709 Y37.79
X64.709 Y38.79
X11.69 Y38.79
X11.69 Y39.79
X64.709 Y39.79
X64.709 Y40.79
X11.69 Y40.79
X11.69 Y41.79
X64.709 Y41.79
X64.709 Y42.79
X11.69 Y42.79
X11.69 Y43.79
X64.709 Y43.79
X64.709 Y44.79
X11.69 Y44.79
X11.69 Y45.79
X64.709 Y45.79
X64.709 Y46.79
X11.69 Y46.79
X11.69 Y47.79
X64.709 Y47.79
X64.709 Y48.79
X11.69 Y48.79
X11.69 Y49.79
X64.709 Y49.79
X64.709 Y50.79
X11.69 Y50.79
X11.69 Y51.79
X64.709 Y51.79
X64.709 Y52.79
X11.69 Y52.79
X11.69 Y53.79
X64.709 Y53.79
X64.709 Y54.79
X11.69 Y54.79
X11.69 Y55.79
X64.709 Y55.79
X64.709 Y56.79
X11.69 Y56.79
X11.69 Y57.79
X64.709 Y57.79
X64.709 Y58.79
X11.69 Y58.79
X11.69 Y59.79
X64.709 Y59.79
X64.709 Y60.79
X11.69 Y60.79
X11.69 Y61.79
X64.709 Y61.79
X64.709 Y62.79
X11.69 Y62.79
X11.69 Y63.79
X64.709 Y63.79
X64.709 Y64.709
X11.69 Y64.709
X11.69 Y63.79
X64.709 Y63.79
X64.709 Y64.709
G00 Z30
Z30
X11.69 Y11.79
Z17
G01 Z11 F100
X64.709 Y11.79 F199.99
X64.709 Y12.79
X11.69 Y12.79
X11.69 Y13.79
X64.709 Y13.79
X64.709 Y14.79
X11.69 Y14.79
X11.69 Y15.79
X64.709 Y15.79
X64.709 Y16.79
X11.69 Y16.79
X11.69 Y17.79
X64.709 Y17.79
X64.709 Y18.79
X11.69 Y18.79
X11.69 Y19.79
X64.709 Y19.79
X64.709 Y20.79
X11.69 Y20.79
X11.69 Y21.79
X64.709 Y21.79
X64.709 Y22.79
X11.69 Y22.79
X11.69 Y23.79
X64.709 Y23.79
X64.709 Y24.79
X11.69 Y24.79
X11.69 Y25.79
X64.709 Y25.79
X64.709 Y26.79
X11.69 Y26.79
X11.69 Y27.79
X64.709 Y27.79
X64.709 Y28.79
X11.69 Y28.79
X11.69 Y29.79
X64.709 Y29.79
X64.709 Y30.79
X11.69 Y30.79
X11.69 Y31.79
X64.709 Y31.79
X64.709 Y32.79
X11.69 Y32.79
X11.69 Y33.79
X64.709 Y33.79
X64.709 Y34.79
X11.69 Y34.79
X11.69 Y35.79
X64.709 Y35.79
X64.709 Y36.79
X11.69 Y36.79
X11.69 Y37.79
X64.709 Y37.79
X64.709 Y38.79
X11.69 Y38.79
X11.69 Y39.79
X64.709 Y39.79
X64.709 Y40.79
X11.69 Y40.79
X11.69 Y41.79
X64.709 Y41.79
X64.709 Y42.79
X11.69 Y42.79
X11.69 Y43.79
X64.709 Y43.79
X64.709 Y44.79
X11.69 Y44.79
X11.69 Y45.79
X64.709 Y45.79
X64.709 Y46.79
X11.69 Y46.79
X11.69 Y47.79
X64.709 Y47.79
X64.709 Y48.79
X11.69 Y48.79
X11.69 Y49.79
X64.709 Y49.79
X64.709 Y50.79
X11.69 Y50.79
X11.69 Y51.79
X64.709 Y51.79
X64.709 Y52.79
X11.69 Y52.79
X11.69 Y53.79
X64.709 Y53.79
X64.709 Y54.79
X11.69 Y54.79
X11.69 Y55.79
X64.709 Y55.79
X64.709 Y56.79
X11.69 Y56.79
X11.69 Y57.79
X64.709 Y57.79
X64.709 Y58.79
X11.69 Y58.79
X11.69 Y59.79
X64.709 Y59.79
X64.709 Y60.79
X11.69 Y60.79
X11.69 Y61.79
X64.709 Y61.79
X64.709 Y62.79
X11.69 Y62.79
X11.69 Y63.79
X64.709 Y63.79
X64.709 Y64.709
X11.69 Y64.709
X11.69 Y63.79
X64.709 Y63.79
X64.709 Y64.709
G00 Z30
Z30
X11.69 Y11.79
Z16
G01 Z10 F100
X64.709 Y11.79 F199.99
X64.709 Y12.79
X11.69 Y12.79
X11.69 Y13.79
X64.709 Y13.79
X64.709 Y14.79
X11.69 Y14.79
X11.69 Y15.79
X64.709 Y15.79
X64.709 Y16.79
X11.69 Y16.79
X11.69 Y17.79
X64.709 Y17.79
X64.709 Y18.79
X11.69 Y18.79
X11.69 Y19.79
X64.709 Y19.79
X64.709 Y20.79
X11.69 Y20.79
X11.69 Y21.79
X64.709 Y21.79
X64.709 Y22.79
X11.69 Y22.79
X11.69 Y23.79
X64.709 Y23.79
X64.709 Y24.79
X11.69 Y24.79
X11.69 Y25.79
X64.709 Y25.79
X64.709 Y26.79
X11.69 Y26.79
X11.69 Y27.79
X64.709 Y27.79
X64.709 Y28.79
X11.69 Y28.79
X11.69 Y29.79
X64.709 Y29.79
X64.709 Y30.79
X11.69 Y30.79
X11.69 Y31.79
X64.709 Y31.79
X64.709 Y32.79
X11.69 Y32.79
X11.69 Y33.79
X64.709 Y33.79
X64.709 Y34.79
X11.69 Y34.79
X11.69 Y35.79
X64.709 Y35.79
X64.709 Y36.79
X11.69 Y36.79
X11.69 Y37.79
X64.709 Y37.79
X64.709 Y38.79
X11.69 Y38.79
X11.69 Y39.79
X64.709 Y39.79
X64.709 Y40.79
X11.69 Y40.79
X11.69 Y41.79
X64.709 Y41.79
X64.709 Y42.79
X11.69 Y42.79
X11.69 Y43.79
X64.709 Y43.79
X64.709 Y44.79
X11.69 Y44.79
X11.69 Y45.79
X64.709 Y45.79
X64.709 Y46.79
X11.69 Y46.79
X11.69 Y47.79
X64.709 Y47.79
X64.709 Y48.79
X11.69 Y48.79
X11.69 Y49.79
X64.709 Y49.79
X64.709 Y50.79
X11.69 Y50.79
X11.69 Y51.79
X64.709 Y51.79
X64.709 Y52.79
X11.69 Y52.79
X11.69 Y53.79
X64.709 Y53.79
X64.709 Y54.79
X11.69 Y54.79
X11.69 Y55.79
X64.709 Y55.79
X64.709 Y56.79
X11.69 Y56.79
X11.69 Y57.79
X64.709 Y57.79
X64.709 Y58.79
X11.69 Y58.79
X11.69 Y59.79
X64.709 Y59.79
X64.709 Y60.79
X11.69 Y60.79
X11.69 Y61.79
X64.709 Y61.79
X64.709 Y62.79
X11.69 Y62.79
X11.69 Y63.79
X64.709 Y63.79
X64.709 Y64.709
X11.69 Y64.709
X11.69 Y63.79
X64.709 Y63.79
X64.709 Y64.709
G00 Z30
Z30
Z30 S7000 M03
X38.224 Y38.734
Z15
G01 Z9 F100
X38.326 Y38.711 F199.99
G02X38.513 Y38.616 I-0.19 J-0.606
G01 X38.584 Y38.551
G02X38.693 Y38.361 I-0.429 J-0.372
G01 X38.72 Y38.248
G02X38.703 Y38.033 I-0.545 J-0.065
X38.588 Y37.817 I-0.577 J0.169
X38.524 Y37.758 I-0.237 J0.193
G01 X38.498 Y37.741
G02X38.104 Y37.649 I-0.326 J0.509
X37.908 Y37.718 I0.051 J0.459
G01 X37.833 Y37.771
G02X37.705 Y37.934 I0.338 J0.397
G01 X37.672 Y38.021
G02X37.645 Y38.22 I0.526 J0.172
G01 X37.65 Y38.268
G02X37.72 Y38.464 I0.554 J-0.087
G01 X37.773 Y38.537
X37.834 Y38.598
X37.938 Y38.673
X37.943 Y38.676
X38.033 Y38.71
X38.124 Y38.729
X38.224 Y38.734
G00 Z30
X38.251 Y39.737
Z15
G01 Z9 F100
X38.364 Y39.728 F199.99
G02X38.874 Y39.569 I-0.235 J-1.652
X39.503 Y38.991 I-0.654 J-1.343
X39.722 Y38.037 I-1.305 J-0.801
X39.563 Y37.487 I-1.537 J0.146
G01 X39.452 Y37.3
G02X39.223 Y37.036 I-1.241 J0.845
G01 X39.109 Y36.945
X38.991 Y36.869
G02X38.486 Y36.673 I-0.823 J1.373
X37.709 Y36.715 I-0.308 J1.5
X37.374 Y36.871 I0.437 J1.377
G01 X37.2 Y36.996
X37.065 Y37.121
X36.941 Y37.269
G02X36.713 Y37.729 I1.144 J0.853
G01 X36.656 Y37.98
G02X36.643 Y38.248 I1.486 J0.206
G01 X36.662 Y38.431
G02X36.773 Y38.807 I1.57 J-0.259
G01 X36.865 Y38.987
G02X37.184 Y39.362 I1.317 J-0.797
G01 X37.401 Y39.519
X37.52 Y39.585
G02X37.998 Y39.724 I0.661 J-1.383
G01 X38.251 Y39.737
G00 Z30
X38.266 Y40.739
Z15
G01 Z9 F100
X38.493 Y40.721 F199.99
X38.738 Y40.677
G02X39.323 Y40.465 I-0.607 J-2.59
X39.84 Y40.126 I-1.178 J-2.36
X40.541 Y39.164 I-1.698 J-1.973
X40.705 Y38.559 I-2.37 J-0.967
X40.719 Y37.94 I-2.501 J-0.366
G01 X40.673 Y37.646
X40.597 Y37.368
X40.459 Y37.037
G02X40.053 Y36.451 I-2.293 J1.155
G01 X39.891 Y36.29
G02X39.482 Y35.996 I-1.602 J1.798
X38.704 Y35.695 I-1.277 J2.146
G01 X38.419 Y35.651
G02X37.661 Y35.692 I-0.239 J2.599
X37.143 Y35.862 I0.6 J2.703
G01 X36.845 Y36.021
X36.567 Y36.221
G02X36.143 Y36.665 I1.644 J1.995
G01 X36.006 Y36.867
X35.896 Y37.072
G02X35.668 Y37.819 I2.422 J1.147
G01 X35.644 Y38.053
X35.644 Y38.3
G02X35.738 Y38.88 I2.593 J-0.122
G01 X35.853 Y39.203
X36.009 Y39.51
G02X36.864 Y40.365 I2.175 J-1.32
X37.31 Y40.583 I1.306 J-2.107
X37.885 Y40.72 I0.88 J-2.421
G01 X38.266 Y40.739
G00 Z30
X38.282 Y41.741
Z15
G01 Z9 F100
X38.622 Y41.714 F199.99
G02X39.293 Y41.561 I-0.443 J-3.49
X40.219 Y41.097 I-1.133 J-3.418
G01 X40.489 Y40.889
X40.735 Y40.658
G02X41.331 Y39.838 I-2.573 J-2.496
G01 X41.472 Y39.536
G02X41.717 Y37.844 I-3.312 J-1.343
G01 X41.653 Y37.436
X41.545 Y37.043
G02X40.798 Y35.781 I-3.323 J1.115
X40.299 Y35.334 I-2.538 J2.331
X39.661 Y34.961 I-2.263 J3.138
X38.91 Y34.715 I-1.477 J3.241
X38.12 Y34.638 I-0.749 J3.597
X37.463 Y34.711 I0.135 J4.208
G01 X37.21 Y34.775
G02X36.736 Y34.947 I0.845 J3.069
X35.584 Y35.776 I1.479 J3.271
G01 X35.344 Y36.063
G02X34.986 Y36.654 I2.867 J2.14
X34.68 Y37.656 I3.39 J1.583
G01 X34.644 Y38.001
X34.644 Y38.348
X34.676 Y38.687
X34.774 Y39.153
G02X35.148 Y40.023 I3.613 J-1.037
X36.341 Y41.22 I3.042 J-1.839
G01 X36.709 Y41.417
X36.968 Y41.524
X37.255 Y41.615
G02X38.282 Y41.741 I0.935 J-3.373
G00 Z30
X38.311 Y42.743
Z15
G01 Z9 F100
G02X39.184 Y42.631 I-0.148 J-4.614 F199.99
X40.023 Y42.351 I-1.027 J-4.475
G01 X40.417 Y42.154
X40.791 Y41.919
X41.139 Y41.652
G02X41.741 Y41.031 I-3.028 J-3.537
G01 X41.996 Y40.679
X42.217 Y40.306
X42.4 Y39.913
G02X42.653 Y39.064 I-4.294 J-1.741
X42.714 Y37.742 I-4.534 J-0.871
X42.495 Y36.723 I-4.604 J0.456
G01 X42.301 Y36.241
G02X41.536 Y35.104 I-4.065 J1.909
X40.528 Y34.288 I-3.245 J2.978
X38.613 Y33.659 I-2.345 J3.911
X37.593 Y33.678 I-0.431 J4.223
X36.935 Y33.814 I0.467 J3.92
X36.317 Y34.039 I1.197 J4.25
X35.195 Y34.761 I1.908 J4.198
X34.544 Y35.462 I3.165 J3.592
G01 X34.294 Y35.833
X34.082 Y36.226
X33.911 Y36.642
G02X33.645 Y37.949 I4.315 J1.558
X33.686 Y38.84 I4.649 J0.232
X34.28 Y40.523 I4.593 J-0.674
G01 X34.47 Y40.816
X34.715 Y41.13
X34.993 Y41.43
G02X36.281 Y42.323 I3.241 J-3.299
G01 X36.626 Y42.465
X36.997 Y42.583
G02X37.846 Y42.731 I1.249 J-4.659
G01 X38.311 Y42.743
G00 Z30
X38.338 Y43.744
Z15
G01 Z9 F100
G02X39.929 Y43.461 I-0.143 J-5.419 F199.99
X41.788 Y42.416 I-1.772 J-5.328
X42.834 Y41.229 I-3.607 J-4.232
G01 X43.103 Y40.773
X43.328 Y40.291
G02X43.711 Y37.64 I-5.149 J-2.097
X42.906 Y35.259 I-5.527 J0.542
X41.495 Y33.729 I-4.665 J2.887
G01 X41.042 Y33.429
G02X39.57 Y32.814 I-2.842 J4.733
G01 X39.125 Y32.719
G02X38.298 Y32.638 I-1.01 J6.058
X37.464 Y32.686 I-0.092 J5.656
X36.66 Y32.853 I0.631 J5.058
X35.905 Y33.128 I1.472 J5.216
G01 X35.549 Y33.305
G02X34.095 Y34.44 I2.665 J4.912
X32.969 Y36.304 I4.016 J3.698
X32.695 Y38.981 I5.24 J1.888
X32.888 Y39.839 I6.065 J-0.913
G01 X33.036 Y40.252
G02X33.42 Y41.034 I5.196 J-2.066
G01 X33.655 Y41.397
X33.953 Y41.779
G02X35.057 Y42.774 I4.172 J-3.519
G01 X35.491 Y43.042
X35.862 Y43.232
X36.284 Y43.406
X36.736 Y43.549
X37.203 Y43.655
G02X38.338 Y43.744 I0.972 J-5.116
G00 Z30
X38.376 Y44.745
Z15
G01 Z9 F100
X39.013 Y44.694 F199.99
X39.638 Y44.583
G02X40.834 Y44.186 I-1.489 J-6.488
X41.934 Y43.566 I-2.702 J-6.081
G01 X42.437 Y43.179
G02X44.253 Y40.675 I-4.231 J-4.979
G01 X44.421 Y40.215
X44.555 Y39.741
G02X44.712 Y38.801 I-6.4 J-1.552
G01 X44.74 Y38.169
G02X44.617 Y36.921 I-6.644 J0.024
G01 X44.467 Y36.313
X44.259 Y35.721
G02X43.447 Y34.275 I-6.066 J2.455
X41.557 Y32.57 I-5.215 J3.881
X39.823 Y31.846 I-3.352 J5.591
X38.759 Y31.664 I-1.647 J6.431
G01 X38.318 Y31.638
X37.816 Y31.648
G02X36.857 Y31.774 I0.412 J6.854
G01 X36.386 Y31.891
G02X35.493 Y32.217 I1.795 J6.303
G01 X35.07 Y32.427
X34.613 Y32.7
X34.18 Y33.007
G02X32.675 Y34.649 I4.089 J5.259
X32.031 Y35.955 I5.669 J3.607
X31.75 Y36.992 I5.795 J2.127
X31.65 Y38.596 I6.543 J1.213
G01 X31.705 Y39.125
G02X31.933 Y40.136 I6.889 J-1.022
G01 X32.107 Y40.624
G02X32.84 Y41.977 I6.125 J-2.443
X33.578 Y42.847 I5.483 J-3.903
X35 Y43.914 I4.585 J-4.63
G01 X35.443 Y44.141
X35.943 Y44.347
G02X37.02 Y44.639 I2.265 J-6.222
G01 X37.506 Y44.71
X37.943 Y44.743
X38.376 Y44.745
G00 Z30
X38.413 Y45.746
Z15
G01 Z9 F100
G02X39.861 Y45.56 I-0.226 J-7.496 F199.99
G01 X40.561 Y45.364
G02X42.508 Y44.388 I-2.366 J-7.15
X43.619 Y43.443 I-4.356 J-6.247
X44.356 Y42.554 I-5.538 J-5.341
G01 X44.673 Y42.068
X44.944 Y41.572
X45.18 Y41.055
X45.374 Y40.523
X45.528 Y39.978
G02X45.71 Y38.888 I-7.284 J-1.776
X44.52 Y34.066 I-7.53 J-0.699
G01 X44.249 Y33.676
X43.914 Y33.26
G02X43.128 Y32.474 I-5.699 J4.913
G01 X42.674 Y32.112
G02X39.364 Y30.731 I-4.48 J6.082
G01 X38.85 Y30.668
X38.338 Y30.638
X37.759 Y30.649
G02X36.113 Y30.929 I0.451 J7.629
X34.591 Y31.55 I2.043 J7.185
G01 X34.067 Y31.862
X33.571 Y32.214
G02X32.761 Y32.939 I4.617 J5.973
X32.136 Y33.673 I6.335 J6.027
G01 X31.834 Y34.108
G02X31.33 Y35.032 I6.059 J3.904
G01 X31.091 Y35.613
X30.903 Y36.205
X30.766 Y36.811
X30.677 Y37.431
G02X30.715 Y39.269 I7.578 J0.762
X30.978 Y40.433 I7.986 J-1.192
G01 X31.178 Y40.996
G02X32.023 Y42.555 I7.172 J-2.879
G01 X32.377 Y43.015
G02X34.018 Y44.488 I5.759 J-4.766
G01 X34.513 Y44.788
X35.024 Y45.05
G02X36.196 Y45.477 I3.132 J-6.775
G01 X36.837 Y45.623
X37.396 Y45.705
G02X38.413 Y45.746 I0.791 J-7.008
G00 Z30
X38.451 Y46.747
Z15
G01 Z9 F100
G02X44.335 Y44.143 I-0.27 J-8.559 F199.99
X45.532 Y42.583 I-6.138 J-5.949
G01 X45.84 Y42.02
G02X46.501 Y40.215 I-7.49 J-3.766
X46.707 Y38.982 I-8.048 J-1.978
G01 X46.743 Y38.375
X46.732 Y37.74
G02X46.568 Y36.458 I-8.469 J0.432
G01 X46.408 Y35.816
G02X45.36 Y33.523 I-8.078 J2.306
G01 X45.05 Y33.077
G02X44.263 Y32.165 I-6.894 J5.154
X43.269 Y31.307 I-6.158 J6.13
G01 X42.728 Y30.939
X42.157 Y30.613
G02X41.146 Y30.165 I-4.29 J8.317
X40.093 Y29.852 I-3.037 J8.291
X38.359 Y29.638 I-1.972 J8.853
G01 X37.702 Y29.65
X37.046 Y29.714
X36.424 Y29.822
G02X35.264 Y30.154 I1.808 J8.51
X34.114 Y30.672 I2.946 J8.077
G01 X33.522 Y31.024
G02X32.433 Y31.865 I4.632 J7.124
X31.675 Y32.651 I5.732 J6.286
G01 X31.335 Y33.075
G02X30.419 Y34.618 I6.752 J5.052
G01 X30.151 Y35.271
G02X29.782 Y36.631 I7.894 J2.871
G01 X29.682 Y37.33
G02X29.657 Y38.741 I8.403 J0.854
X29.849 Y40.077 I8.34 J-0.516
X30.848 Y42.58 I8.326 J-1.872
X32.05 Y44.147 I7.178 J-4.261
G01 X32.437 Y44.522
G02X33.467 Y45.323 I5.78 J-6.369
G01 X34.025 Y45.662
X34.605 Y45.959
G02X35.934 Y46.443 I3.507 J-7.564
G01 X36.653 Y46.607
X37.286 Y46.7
G02X38.451 Y46.747 I0.903 J-7.92
G00 Z30
X38.491 Y47.747
Z15
G01 Z9 F100
X39.31 Y47.683 F199.99
G02X41.495 Y47.159 I-1.196 J-9.808
G01 X42.062 Y46.93
G02X43.27 Y46.286 I-3.799 J-8.581
G01 X43.905 Y45.85
X44.502 Y45.368
X45.055 Y44.839
G02X46 Y43.699 I-6.783 J-6.584
X46.736 Y42.468 I-7.739 J-5.462
X47.618 Y39.75 I-8.537 J-4.272
X47.744 Y38.397 I-9.86 J-1.6
X47.669 Y36.982 I-9.682 J-0.196
G01 X47.548 Y36.255
G02X46.855 Y34.159 I-9.407 J1.947
X46.201 Y32.98 I-8.79 J4.105
G01 X45.853 Y32.48
X45.47 Y32
G02X42.622 Y29.727 I-7.253 J6.167
G01 X42.064 Y29.46
X41.493 Y29.227
X40.91 Y29.034
X40.318 Y28.877
X39.721 Y28.76
X39.118 Y28.684
G02X36.912 Y28.723 I-0.939 J9.273
X35.533 Y29.015 I1.287 J9.481
X34.326 Y29.455 I2.649 J9.142
X31.762 Y31.123 I3.895 J8.792
G01 X31.328 Y31.546
X30.914 Y32.002
X30.534 Y32.477
G02X29.869 Y33.499 I7.753 J5.772
X28.659 Y38.805 I8.324 J4.689
X29.99 Y43.093 I9.519 J-0.604
X30.837 Y44.293 I8.162 J-4.862
G01 X31.33 Y44.842
X31.767 Y45.265
G02X34.186 Y46.868 I6.475 J-7.145
G01 X34.891 Y47.161
G02X36.469 Y47.591 I3.354 J-9.2
X37.891 Y47.747 I1.741 J-9.311
G01 X38.491 Y47.747
G00 Z30
X38.53 Y48.747
Z15
G01 Z9 F100
G02X41.198 Y48.311 I-0.369 J-10.641 F199.99
G01 X41.84 Y48.099
X42.467 Y47.846
X43.07 Y47.556
G02X45.163 Y46.12 I-4.95 J-9.458
G01 X45.775 Y45.536
X46.338 Y44.906
G02X48.606 Y39.914 I-8.138 J-6.708
X48.745 Y38.42 I-10.462 J-1.726
G01 X48.734 Y37.668
G02X47.391 Y33.013 I-10.519 J0.513
G01 X47.04 Y32.435
X46.655 Y31.882
G02X45.289 Y30.379 I-8.442 J6.3
G01 X44.776 Y29.941
G02X43.668 Y29.166 I-6.817 J8.567
G01 X43.083 Y28.839
X42.469 Y28.545
X41.839 Y28.289
X41.196 Y28.076
G02X39.212 Y27.688 I-2.958 J9.863
G01 X38.397 Y27.639
G02X36.777 Y27.732 I-0.213 J10.441
G01 X35.978 Y27.872
G02X34.547 Y28.288 I2.281 J10.517
G01 X33.921 Y28.541
X33.311 Y28.835
G02X31.094 Y30.38 I4.925 J9.43
G01 X30.609 Y30.852
X30.154 Y31.353
X29.733 Y31.878
X29.349 Y32.43
G02X28.411 Y34.23 I8.929 J5.797
X27.726 Y36.843 I9.705 J3.94
X27.661 Y38.871 I10.41 J1.348
G01 X27.726 Y39.54
G02X28.41 Y42.153 I10.356 J-1.315
X30.61 Y45.537 I9.751 J-3.932
X31.612 Y46.445 I7.514 J-7.285
X34.548 Y48.101 I6.57 J-8.219
X37.183 Y48.703 I3.687 J-10.072
G01 X37.859 Y48.747
X38.53 Y48.747
G00 Z30
X38.565 Y49.747
Z15
G01 Z9 F100
G02X40.039 Y49.602 I-0.455 J-12.195 F199.99
X42.185 Y49.039 I-1.874 J-11.516
G01 X42.872 Y48.762
X43.538 Y48.441
G02X48.606 Y43.208 I-5.355 J-10.257
X49.594 Y40.078 I-10.484 J-5.03
X49.746 Y38.442 I-11.434 J-1.887
X49.538 Y35.986 I-11.654 J-0.249
X49.161 Y34.553 I-11.295 J2.205
G01 X48.906 Y33.857
X48.605 Y33.18
X48.263 Y32.523
G02X47.457 Y31.284 I-10.223 J5.768
X46.494 Y30.154 I-9.322 J6.968
G01 X45.963 Y29.639
X45.4 Y29.159
G02X44.187 Y28.311 I-7.679 J9.693
G01 X43.544 Y27.951
X42.874 Y27.63
X42.185 Y27.351
G02X40.037 Y26.786 I-4.07 J11.108
G01 X39.306 Y26.692
G02X34.906 Y27.116 I-1.121 J11.406
G01 X34.202 Y27.349
X33.516 Y27.627
G02X32.202 Y28.313 I4.806 J10.807
G01 X31.581 Y28.717
X30.988 Y29.16
G02X29.891 Y30.157 I6.895 J8.689
G01 X29.393 Y30.704
X28.932 Y31.28
G02X28.128 Y32.519 I9.186 J6.841
G01 X27.784 Y33.177
X27.484 Y33.855
X27.227 Y34.551
X27.017 Y35.261
G02X26.734 Y36.716 I11.596 J3.01
G01 X26.663 Y37.453
X26.639 Y38.195
X26.663 Y38.936
X26.734 Y39.67
X26.854 Y40.403
G02X27.227 Y41.835 I11.077 J-2.12
X27.784 Y43.209 I11.193 J-3.737
G01 X28.128 Y43.868
G02X29.395 Y45.687 I9.916 J-5.556
X30.425 Y46.748 I8.547 J-7.267
G01 X30.989 Y47.228
X31.582 Y47.672
G02X33.517 Y48.762 I6.581 J-9.421
G01 X34.203 Y49.04
X34.907 Y49.274
G02X36.351 Y49.604 I3.315 J-11.183
G01 X37.087 Y49.699
X37.827 Y49.747
X38.565 Y49.747
G00 Z30
X38.599 Y50.747
Z15
G01 Z9 F100
G02X40.199 Y50.59 I-0.437 J-12.687 F199.99
X43.277 Y49.678 I-2.007 J-12.425
X45.38 Y48.494 I-5.11 J-11.537
X48.72 Y45.043 I-7.218 J-10.328
X49.509 Y43.641 I-10.444 J-6.8
X50.521 Y35.797 I-11.341 J-5.45
X50.112 Y34.24 I-12.214 J2.376
G01 X49.834 Y33.482
G02X48.259 Y30.686 I-11.694 J4.746
X47.214 Y29.459 I-10.189 J7.619
G01 X46.637 Y28.899
X46.024 Y28.377
X45.379 Y27.896
G02X44.006 Y27.064 I-6.862 J9.775
G01 X43.279 Y26.715
G02X41.767 Y26.159 I-5.119 J11.588
G01 X40.987 Y25.954
X40.198 Y25.799
X39.402 Y25.696
X38.597 Y25.646
G02X35.401 Y25.953 I-0.419 J12.425
X32.386 Y27.063 I2.804 J12.268
G01 X31.684 Y27.458
G02X30.365 Y28.379 I6.475 J10.679
X29.173 Y29.461 I7.694 J9.674
X27.257 Y32.029 I8.888 J8.63
X26.049 Y35.009 I10.949 J6.173
G01 X25.871 Y35.794
X25.742 Y36.588
X25.665 Y37.39
X25.639 Y38.196
X25.665 Y39.001
X25.742 Y39.799
X25.872 Y40.595
X26.05 Y41.382
X26.278 Y42.151
X26.557 Y42.907
G02X27.257 Y44.359 I11.607 J-4.701
G01 X27.673 Y45.048
X28.132 Y45.707
G02X29.175 Y46.932 I10.156 J-7.59
X31.01 Y48.493 I9.104 J-8.843
G01 X31.684 Y48.932
X32.385 Y49.326
X33.112 Y49.677
X33.858 Y49.979
G02X37.795 Y50.747 I4.328 J-11.714
G01 X38.599 Y50.747
G00 Z30
X38.632 Y51.747
Z15
G01 Z9 F100
G02X42.878 Y50.92 I-0.459 J-13.673 F199.99
X44.466 Y50.215 I-4.614 J-12.535
X45.953 Y49.315 I-6.178 J-11.886
X47.936 Y47.625 I-7.755 J-11.108
G01 X48.521 Y46.982
G02X51.063 Y42.466 I-10.325 J-8.785
X51.725 Y37.326 I-12.914 J-4.275
G01 X51.642 Y36.462
X51.504 Y35.606
X51.31 Y34.759
X51.062 Y33.925
X50.762 Y33.108
X50.411 Y32.314
X50.009 Y31.545
X49.558 Y30.8
X49.061 Y30.088
X48.518 Y29.408
X47.934 Y28.764
G02X45.225 Y26.602 I-9.731 J9.415
G01 X44.468 Y26.177
G02X42.878 Y25.474 I-6.29 J12.077
G01 X42.052 Y25.2
G02X40.359 Y24.812 I-3.901 J13.136
G01 X39.498 Y24.701
G02X37.76 Y24.646 I-1.303 J13.702
X34.339 Y25.199 I0.427 J13.505
G01 X33.514 Y25.473
X32.707 Y25.799
G02X28.456 Y28.765 I5.5 J12.412
G01 X27.871 Y29.407
G02X26.832 Y30.798 I10.526 J8.946
G01 X26.385 Y31.54
G02X25.082 Y34.756 I11.807 J6.655
G01 X24.889 Y35.603
X24.75 Y36.461
G02X24.667 Y39.066 I13.723 J1.741
G01 X24.75 Y39.928
X24.89 Y40.787
X25.082 Y41.635
X25.329 Y42.467
X25.63 Y43.283
X25.982 Y44.078
X26.385 Y44.85
X26.834 Y45.594
X27.331 Y46.306
X27.873 Y46.985
G02X29.081 Y48.233 I10.174 J-8.64
G01 X29.743 Y48.795
X30.438 Y49.314
G02X33.513 Y50.918 I7.742 J-11.094
G01 X34.338 Y51.192
X35.18 Y51.413
X36.033 Y51.581
G02X37.763 Y51.747 I2.186 J-13.69
G01 X38.632 Y51.747
G00 Z30
X38.664 Y52.748
Z15
G01 Z9 F100
X39.595 Y52.689 F199.99
X40.52 Y52.569
G02X42.339 Y52.153 I-2.462 J-14.954
X44.088 Y51.509 I-3.984 J-13.519
X45.744 Y50.645 I-6.096 J-13.704
G01 X46.526 Y50.136
G02X49.866 Y46.903 I-8.395 J-12.014
X51.313 Y44.512 I-11.814 J-8.783
X52.485 Y40.978 I-13.044 J-6.287
G01 X52.634 Y40.057
G02X52.754 Y38.195 I-14.368 J-1.86
X52.487 Y35.415 I-14.595 J-0
G01 X52.278 Y34.505
X52.012 Y33.61
X51.69 Y32.734
G02X50.881 Y31.054 I-13.083 J5.265
X48.654 Y28.069 I-12.713 J7.161
G01 X47.985 Y27.419
G02X45.744 Y25.747 I-9.888 J10.915
G01 X44.931 Y25.29
G02X43.224 Y24.536 I-6.659 J12.768
X39.594 Y23.706 I-5.031 J13.65
G01 X38.662 Y23.647
G02X36.798 Y23.705 I-0.467 J14.973
G01 X35.875 Y23.825
G02X30.649 Y25.748 I2.326 J14.384
X25.994 Y30.254 I7.578 J12.486
G01 X25.513 Y31.051
X25.08 Y31.881
X24.702 Y32.734
X24.38 Y33.608
X24.115 Y34.503
G02X23.64 Y38.196 I14.07 J3.686
G01 X23.669 Y39.13
X23.758 Y40.057
X23.908 Y40.978
X24.114 Y41.889
X24.38 Y42.783
X24.703 Y43.659
X25.081 Y44.513
X25.513 Y45.341
X25.996 Y46.14
G02X28.41 Y48.975 I12.25 J-7.986
X29.867 Y50.136 I10.002 J-11.057
G01 X30.648 Y50.645
X31.462 Y51.102
X32.303 Y51.508
G02X35.874 Y52.569 I5.923 J-13.396
X37.731 Y52.747 I2.343 J-14.677
G01 X38.664 Y52.748
G00 Z30
X37.699 Y53.748
Z15
G01 Z9 F100
X38.696 Y53.748 F199.99
G02X40.681 Y53.557 I-0.462 J-15.217
X42.624 Y53.113 I-2.517 J-15.491
X44.494 Y52.424 I-4.204 J-14.292
G01 X45.394 Y51.99
X46.263 Y51.501
G02X50.044 Y48.282 I-8 J-13.227
G01 X50.668 Y47.502
G02X52.963 Y43.099 I-12.477 J-9.303
X53.723 Y37.2 I-14.748 J-4.898
G01 X53.628 Y36.207
X53.469 Y35.224
G02X52.618 Y32.36 I-15.37 J3.008
G01 X52.215 Y31.447
G02X51.236 Y29.712 I-13.794 J6.64
G01 X50.666 Y28.893
G02X47.099 Y25.437 I-12.431 J9.261
X44.495 Y23.971 I-8.819 J12.62
X40.679 Y22.838 I-6.338 J14.356
X37.698 Y22.647 I-2.497 J15.618
X35.715 Y22.838 I0.466 J15.231
X33.77 Y23.283 I2.609 J15.876
X31.001 Y24.405 I4.368 J14.757
X28.496 Y26.034 I7.135 J13.712
G01 X27.737 Y26.68
X27.02 Y27.374
X26.35 Y28.112
X25.727 Y28.892
G02X24.641 Y30.562 I12.259 J9.16
X23.775 Y32.359 I13.967 J7.838
X22.767 Y36.206 I14.557 J5.869
G01 X22.672 Y37.199
G02X22.671 Y39.194 I15.777 J1.005
X22.926 Y41.171 I15.532 J-0.998
G01 X23.147 Y42.143
X23.431 Y43.099
X23.776 Y44.035
G02X25.158 Y46.686 I14.575 J-5.912
G01 X25.728 Y47.503
G02X27.738 Y49.716 I12.562 J-9.39
X30.131 Y51.502 I10.51 J-11.585
X33.769 Y53.112 I8.086 J-13.356
G01 X34.735 Y53.365
X35.715 Y53.557
G02X37.699 Y53.748 I2.494 J-15.51
G00 Z30
X38.729 Y54.749
Z15
G01 Z9 F100
X39.788 Y54.681 F199.99
X40.841 Y54.545
G02X43.917 Y53.739 I-2.648 J-16.379
X47.672 Y51.779 I-5.761 J-15.614
G01 X48.523 Y51.144
G02X50.093 Y49.718 I-10.095 J-12.691
X51.47 Y48.101 I-12.169 J-11.758
G01 X52.076 Y47.232
X52.626 Y46.324
X53.117 Y45.382
G02X54.621 Y36.08 I-14.914 J-7.184
G01 X54.452 Y35.033
G02X53.546 Y31.985 I-16.251 J3.171
G01 X53.117 Y31.014
X52.626 Y30.073
X52.075 Y29.166
X51.468 Y28.295
X50.806 Y27.465
X50.093 Y26.678
X49.33 Y25.939
X48.523 Y25.252
X47.672 Y24.617
X46.783 Y24.038
G02X43.916 Y22.658 I-8.572 J14.141
G01 X42.908 Y22.324
X41.882 Y22.054
X40.84 Y21.851
G02X38.729 Y21.649 I-2.576 J15.79
X34.514 Y22.055 I-0.551 J16.352
G01 X33.487 Y22.324
X32.479 Y22.657
X31.495 Y23.057
X30.539 Y23.518
X29.614 Y24.038
G02X24.927 Y28.294 I8.604 J14.184
X23.279 Y31.014 I13.139 J9.82
X22.482 Y32.98 I14.884 J7.178
G01 X22.181 Y33.999
X21.943 Y35.033
X21.775 Y36.08
X21.674 Y37.136
G02X21.775 Y40.316 I16.69 J1.061
X22.181 Y42.398 I16.178 J-2.074
G01 X22.482 Y43.415
G02X23.28 Y45.383 I15.925 J-5.311
G01 X23.771 Y46.324
G02X26.303 Y49.718 I14.342 J-8.058
G01 X27.066 Y50.457
G02X29.614 Y52.359 I11.158 J-12.291
G01 X30.54 Y52.879
G02X32.479 Y53.739 I7.706 J-14.76
X35.556 Y54.545 I5.738 J-15.63
X38.729 Y54.749 I2.642 J-16.315
G00 Z30
X38.761 Y55.75
Z15
G01 Z9 F100
X39.885 Y55.677 F199.99
X41.001 Y55.533
X42.106 Y55.318
X43.195 Y55.033
G02X45.307 Y54.255 I-4.951 J-16.696
X50.004 Y51.198 I-7.09 J-16.031
G01 X50.813 Y50.414
G02X52.272 Y48.701 I-12.862 J-12.433
G01 X52.915 Y47.778
G02X54.475 Y44.788 I-14.714 J-9.579
X55.184 Y42.652 I-16.08 J-6.523
G01 X55.435 Y41.556
G02X55.722 Y39.324 I-17.353 J-3.365
X55.722 Y37.075 I-17.069 J-1.124
X55.435 Y34.842 I-17.624 J1.13
G01 X55.184 Y33.746
G02X51.569 Y26.817 I-16.984 J4.453
X49.147 Y24.47 I-13.372 J11.376
G01 X48.245 Y23.797
X47.302 Y23.183
X46.32 Y22.631
G02X38.761 Y20.649 I-8.118 J15.558
G01 X37.637 Y20.649
G02X35.397 Y20.865 I0.555 J17.487
G01 X34.292 Y21.08
X33.203 Y21.365
G02X31.091 Y22.143 I4.951 J16.696
X29.096 Y23.183 I7.223 J16.29
G01 X28.153 Y23.797
G02X26.394 Y25.2 I9.976 J14.311
X22.379 Y30.58 I11.787 J12.984
X21.214 Y33.746 I15.715 J7.58
X20.784 Y35.953 I16.636 J4.386
X20.676 Y39.324 I17.446 J2.246
X21.214 Y42.652 I17.325 J-1.093
X21.923 Y44.788 I16.789 J-4.387
G01 X22.379 Y45.818
X22.9 Y46.816
G02X24.126 Y48.701 I15.405 J-8.678
G01 X24.829 Y49.581
G02X26.394 Y51.198 I13.375 J-11.379
G01 X27.251 Y51.928
X28.153 Y52.601
X29.096 Y53.215
X30.078 Y53.767
X31.091 Y54.255
G02X33.203 Y55.033 I7.063 J-15.918
G01 X34.292 Y55.318
X35.397 Y55.533
G02X38.761 Y55.75 I2.802 J-17.254
G00 Z30
Z30
X38.224 Y38.734
Z14
G01 Z8 F100
X38.326 Y38.711 F199.99
G02X38.513 Y38.616 I-0.19 J-0.606
G01 X38.584 Y38.551
G02X38.693 Y38.361 I-0.429 J-0.372
G01 X38.72 Y38.248
G02X38.703 Y38.033 I-0.545 J-0.065
X38.588 Y37.817 I-0.577 J0.169
X38.524 Y37.758 I-0.237 J0.193
G01 X38.498 Y37.741
G02X38.104 Y37.649 I-0.326 J0.509
X37.908 Y37.718 I0.051 J0.459
G01 X37.833 Y37.771
G02X37.705 Y37.934 I0.338 J0.397
G01 X37.672 Y38.021
G02X37.645 Y38.22 I0.526 J0.172
G01 X37.65 Y38.268
G02X37.72 Y38.464 I0.554 J-0.087
G01 X37.773 Y38.537
X37.834 Y38.598
X37.938 Y38.673
X37.943 Y38.676
X38.033 Y38.71
X38.124 Y38.729
X38.224 Y38.734
G00 Z30
X38.251 Y39.737
Z14
G01 Z8 F100
X38.364 Y39.728 F199.99
G02X38.874 Y39.569 I-0.235 J-1.652
X39.503 Y38.991 I-0.654 J-1.343
X39.722 Y38.037 I-1.305 J-0.801
X39.563 Y37.487 I-1.537 J0.146
G01 X39.452 Y37.3
G02X39.223 Y37.036 I-1.241 J0.845
G01 X39.109 Y36.945
X38.991 Y36.869
G02X38.486 Y36.673 I-0.823 J1.373
X37.709 Y36.715 I-0.308 J1.5
X37.374 Y36.871 I0.437 J1.377
G01 X37.2 Y36.996
X37.065 Y37.121
X36.941 Y37.269
G02X36.713 Y37.729 I1.144 J0.853
G01 X36.656 Y37.98
G02X36.643 Y38.248 I1.486 J0.206
G01 X36.662 Y38.431
G02X36.773 Y38.807 I1.57 J-0.259
G01 X36.865 Y38.987
G02X37.184 Y39.362 I1.317 J-0.797
G01 X37.401 Y39.519
X37.52 Y39.585
G02X37.998 Y39.724 I0.661 J-1.383
G01 X38.251 Y39.737
G00 Z30
X38.266 Y40.739
Z14
G01 Z8 F100
X38.493 Y40.721 F199.99
X38.738 Y40.677
G02X39.323 Y40.465 I-0.607 J-2.59
X39.84 Y40.126 I-1.178 J-2.36
X40.541 Y39.164 I-1.698 J-1.973
X40.705 Y38.559 I-2.37 J-0.967
X40.719 Y37.94 I-2.501 J-0.366
G01 X40.673 Y37.646
X40.597 Y37.368
X40.459 Y37.037
G02X40.053 Y36.451 I-2.293 J1.155
G01 X39.891 Y36.29
G02X39.482 Y35.996 I-1.602 J1.798
X38.704 Y35.695 I-1.277 J2.146
G01 X38.419 Y35.651
G02X37.661 Y35.692 I-0.239 J2.599
X37.143 Y35.862 I0.6 J2.703
G01 X36.845 Y36.021
X36.567 Y36.221
G02X36.143 Y36.665 I1.644 J1.995
G01 X36.006 Y36.867
X35.896 Y37.072
G02X35.668 Y37.819 I2.422 J1.147
G01 X35.644 Y38.053
X35.644 Y38.3
G02X35.738 Y38.88 I2.593 J-0.122
G01 X35.853 Y39.203
X36.009 Y39.51
G02X36.864 Y40.365 I2.175 J-1.32
X37.31 Y40.583 I1.306 J-2.107
X37.885 Y40.72 I0.88 J-2.421
G01 X38.266 Y40.739
G00 Z30
X38.282 Y41.741
Z14
G01 Z8 F100
X38.622 Y41.714 F199.99
G02X39.293 Y41.561 I-0.443 J-3.49
X40.219 Y41.097 I-1.133 J-3.418
G01 X40.489 Y40.889
X40.735 Y40.658
G02X41.331 Y39.838 I-2.573 J-2.496
G01 X41.472 Y39.536
G02X41.717 Y37.844 I-3.312 J-1.343
G01 X41.653 Y37.436
X41.545 Y37.043
G02X40.798 Y35.781 I-3.323 J1.115
X40.299 Y35.334 I-2.538 J2.331
X39.661 Y34.961 I-2.263 J3.138
X38.91 Y34.715 I-1.477 J3.241
X38.12 Y34.638 I-0.749 J3.597
X37.463 Y34.711 I0.135 J4.208
G01 X37.21 Y34.775
G02X36.736 Y34.947 I0.845 J3.069
X35.584 Y35.776 I1.479 J3.271
G01 X35.344 Y36.063
G02X34.986 Y36.654 I2.867 J2.14
X34.68 Y37.656 I3.39 J1.583
G01 X34.644 Y38.001
X34.644 Y38.348
X34.676 Y38.687
X34.774 Y39.153
G02X35.148 Y40.023 I3.613 J-1.037
X36.341 Y41.22 I3.042 J-1.839
G01 X36.709 Y41.417
X36.968 Y41.524
X37.255 Y41.615
G02X38.282 Y41.741 I0.935 J-3.373
G00 Z30
X38.311 Y42.743
Z14
G01 Z8 F100
G02X39.184 Y42.631 I-0.148 J-4.614 F199.99
X40.023 Y42.351 I-1.027 J-4.475
G01 X40.417 Y42.154
X40.791 Y41.919
X41.139 Y41.652
G02X41.741 Y41.031 I-3.028 J-3.537
G01 X41.996 Y40.679
X42.217 Y40.306
X42.4 Y39.913
G02X42.653 Y39.064 I-4.294 J-1.741
X42.714 Y37.742 I-4.534 J-0.871
X42.495 Y36.723 I-4.604 J0.456
G01 X42.301 Y36.241
G02X41.536 Y35.104 I-4.065 J1.909
X40.528 Y34.288 I-3.245 J2.978
X38.613 Y33.659 I-2.345 J3.911
X37.593 Y33.678 I-0.431 J4.223
X36.935 Y33.814 I0.467 J3.92
X36.317 Y34.039 I1.197 J4.25
X35.195 Y34.761 I1.908 J4.198
X34.544 Y35.462 I3.165 J3.592
G01 X34.294 Y35.833
X34.082 Y36.226
X33.911 Y36.642
G02X33.645 Y37.949 I4.315 J1.558
X33.686 Y38.84 I4.649 J0.232
X34.28 Y40.523 I4.593 J-0.674
G01 X34.47 Y40.816
X34.715 Y41.13
X34.993 Y41.43
G02X36.281 Y42.323 I3.241 J-3.299
G01 X36.626 Y42.465
X36.997 Y42.583
G02X37.846 Y42.731 I1.249 J-4.659
G01 X38.311 Y42.743
G00 Z30
X38.338 Y43.744
Z14
G01 Z8 F100
G02X39.929 Y43.461 I-0.143 J-5.419 F199.99
X41.788 Y42.416 I-1.772 J-5.328
X42.834 Y41.229 I-3.607 J-4.232
G01 X43.103 Y40.773
X43.328 Y40.291
G02X43.711 Y37.64 I-5.149 J-2.097
X42.906 Y35.259 I-5.527 J0.542
X41.495 Y33.729 I-4.665 J2.887
G01 X41.042 Y33.429
G02X39.57 Y32.814 I-2.842 J4.733
G01 X39.125 Y32.719
G02X38.298 Y32.638 I-1.01 J6.058
X37.464 Y32.686 I-0.092 J5.656
X36.66 Y32.853 I0.631 J5.058
X35.905 Y33.128 I1.472 J5.216
G01 X35.549 Y33.305
G02X34.095 Y34.44 I2.665 J4.912
X32.969 Y36.304 I4.016 J3.698
X32.695 Y38.981 I5.24 J1.888
X32.888 Y39.839 I6.065 J-0.913
G01 X33.036 Y40.252
G02X33.42 Y41.034 I5.196 J-2.066
G01 X33.655 Y41.397
X33.953 Y41.779
G02X35.057 Y42.774 I4.172 J-3.519
G01 X35.491 Y43.042
X35.862 Y43.232
X36.284 Y43.406
X36.736 Y43.549
X37.203 Y43.655
G02X38.338 Y43.744 I0.972 J-5.116
G00 Z30
X38.376 Y44.745
Z14
G01 Z8 F100
X39.013 Y44.694 F199.99
X39.638 Y44.583
G02X40.834 Y44.186 I-1.489 J-6.488
X41.934 Y43.566 I-2.702 J-6.081
G01 X42.437 Y43.179
G02X44.253 Y40.675 I-4.231 J-4.979
G01 X44.421 Y40.215
X44.555 Y39.741
G02X44.712 Y38.801 I-6.4 J-1.552
G01 X44.74 Y38.169
G02X44.617 Y36.921 I-6.644 J0.024
G01 X44.467 Y36.313
X44.259 Y35.721
G02X43.447 Y34.275 I-6.066 J2.455
X41.557 Y32.57 I-5.215 J3.881
X39.823 Y31.846 I-3.352 J5.591
X38.759 Y31.664 I-1.647 J6.431
G01 X38.318 Y31.638
X37.816 Y31.648
G02X36.857 Y31.774 I0.412 J6.854
G01 X36.386 Y31.891
G02X35.493 Y32.217 I1.795 J6.303
G01 X35.07 Y32.427
X34.613 Y32.7
X34.18 Y33.007
G02X32.675 Y34.649 I4.089 J5.259
X32.031 Y35.955 I5.669 J3.607
X31.75 Y36.992 I5.795 J2.127
X31.65 Y38.596 I6.543 J1.213
G01 X31.705 Y39.125
G02X31.933 Y40.136 I6.889 J-1.022
G01 X32.107 Y40.624
G02X32.84 Y41.977 I6.125 J-2.443
X33.578 Y42.847 I5.483 J-3.903
X35 Y43.914 I4.585 J-4.63
G01 X35.443 Y44.141
X35.943 Y44.347
G02X37.02 Y44.639 I2.265 J-6.222
G01 X37.506 Y44.71
X37.943 Y44.743
X38.376 Y44.745
G00 Z30
X38.413 Y45.746
Z14
G01 Z8 F100
G02X39.861 Y45.56 I-0.226 J-7.496 F199.99
G01 X40.561 Y45.364
G02X42.508 Y44.388 I-2.366 J-7.15
X43.619 Y43.443 I-4.356 J-6.247
X44.356 Y42.554 I-5.538 J-5.341
G01 X44.673 Y42.068
X44.944 Y41.572
X45.18 Y41.055
X45.374 Y40.523
X45.528 Y39.978
G02X45.71 Y38.888 I-7.284 J-1.776
X44.52 Y34.066 I-7.53 J-0.699
G01 X44.249 Y33.676
X43.914 Y33.26
G02X43.128 Y32.474 I-5.699 J4.913
G01 X42.674 Y32.112
G02X39.364 Y30.731 I-4.48 J6.082
G01 X38.85 Y30.668
X38.338 Y30.638
X37.759 Y30.649
G02X36.113 Y30.929 I0.451 J7.629
X34.591 Y31.55 I2.043 J7.185
G01 X34.067 Y31.862
X33.571 Y32.214
G02X32.761 Y32.939 I4.617 J5.973
X32.136 Y33.673 I6.335 J6.027
G01 X31.834 Y34.108
G02X31.33 Y35.032 I6.059 J3.904
G01 X31.091 Y35.613
X30.903 Y36.205
X30.766 Y36.811
X30.677 Y37.431
G02X30.715 Y39.269 I7.578 J0.762
X30.978 Y40.433 I7.986 J-1.192
G01 X31.178 Y40.996
G02X32.023 Y42.555 I7.172 J-2.879
G01 X32.377 Y43.015
G02X34.018 Y44.488 I5.759 J-4.766
G01 X34.513 Y44.788
X35.024 Y45.05
G02X36.196 Y45.477 I3.132 J-6.775
G01 X36.837 Y45.623
X37.396 Y45.705
G02X38.413 Y45.746 I0.791 J-7.008
G00 Z30
X38.451 Y46.747
Z14
G01 Z8 F100
G02X44.335 Y44.143 I-0.27 J-8.559 F199.99
X45.532 Y42.583 I-6.138 J-5.949
G01 X45.84 Y42.02
G02X46.501 Y40.215 I-7.49 J-3.766
X46.707 Y38.982 I-8.048 J-1.978
G01 X46.743 Y38.375
X46.732 Y37.74
G02X46.568 Y36.458 I-8.469 J0.432
G01 X46.408 Y35.816
G02X45.36 Y33.523 I-8.078 J2.306
G01 X45.05 Y33.077
G02X44.263 Y32.165 I-6.894 J5.154
X43.269 Y31.307 I-6.158 J6.13
G01 X42.728 Y30.939
X42.157 Y30.613
G02X41.146 Y30.165 I-4.29 J8.317
X40.093 Y29.852 I-3.037 J8.291
X38.359 Y29.638 I-1.972 J8.853
G01 X37.702 Y29.65
X37.046 Y29.714
X36.424 Y29.822
G02X35.264 Y30.154 I1.808 J8.51
X34.114 Y30.672 I2.946 J8.077
G01 X33.522 Y31.024
G02X32.433 Y31.865 I4.632 J7.124
X31.675 Y32.651 I5.732 J6.286
G01 X31.335 Y33.075
G02X30.419 Y34.618 I6.752 J5.052
G01 X30.151 Y35.271
G02X29.782 Y36.631 I7.894 J2.871
G01 X29.682 Y37.33
G02X29.657 Y38.741 I8.403 J0.854
X29.849 Y40.077 I8.34 J-0.516
X30.848 Y42.58 I8.326 J-1.872
X32.05 Y44.147 I7.178 J-4.261
G01 X32.437 Y44.522
G02X33.467 Y45.323 I5.78 J-6.369
G01 X34.025 Y45.662
X34.605 Y45.959
G02X35.934 Y46.443 I3.507 J-7.564
G01 X36.653 Y46.607
X37.286 Y46.7
G02X38.451 Y46.747 I0.903 J-7.92
G00 Z30
X38.491 Y47.747
Z14
G01 Z8 F100
X39.31 Y47.683 F199.99
G02X41.495 Y47.159 I-1.196 J-9.808
G01 X42.062 Y46.93
G02X43.27 Y46.286 I-3.799 J-8.581
G01 X43.905 Y45.85
X44.502 Y45.368
X45.055 Y44.839
G02X46 Y43.699 I-6.783 J-6.584
X46.736 Y42.468 I-7.739 J-5.462
X47.618 Y39.75 I-8.537 J-4.272
X47.744 Y38.397 I-9.86 J-1.6
X47.669 Y36.982 I-9.682 J-0.196
G01 X47.548 Y36.255
G02X46.855 Y34.159 I-9.407 J1.947
X46.201 Y32.98 I-8.79 J4.105
G01 X45.853 Y32.48
X45.47 Y32
G02X42.622 Y29.727 I-7.253 J6.167
G01 X42.064 Y29.46
X41.493 Y29.227
X40.91 Y29.034
X40.318 Y28.877
X39.721 Y28.76
X39.118 Y28.684
G02X36.912 Y28.723 I-0.939 J9.273
X35.533 Y29.015 I1.287 J9.481
X34.326 Y29.455 I2.649 J9.142
X31.762 Y31.123 I3.895 J8.792
G01 X31.328 Y31.546
X30.914 Y32.002
X30.534 Y32.477
G02X29.869 Y33.499 I7.753 J5.772
X28.659 Y38.805 I8.324 J4.689
X29.99 Y43.093 I9.519 J-0.604
X30.837 Y44.293 I8.162 J-4.862
G01 X31.33 Y44.842
X31.767 Y45.265
G02X34.186 Y46.868 I6.475 J-7.145
G01 X34.891 Y47.161
G02X36.469 Y47.591 I3.354 J-9.2
X37.891 Y47.747 I1.741 J-9.311
G01 X38.491 Y47.747
G00 Z30
X38.53 Y48.747
Z14
G01 Z8 F100
G02X41.198 Y48.311 I-0.369 J-10.641 F199.99
G01 X41.84 Y48.099
X42.467 Y47.846
X43.07 Y47.556
G02X45.163 Y46.12 I-4.95 J-9.458
G01 X45.775 Y45.536
X46.338 Y44.906
G02X48.606 Y39.914 I-8.138 J-6.708
X48.745 Y38.42 I-10.462 J-1.726
G01 X48.734 Y37.668
G02X47.391 Y33.013 I-10.519 J0.513
G01 X47.04 Y32.435
X46.655 Y31.882
G02X45.289 Y30.379 I-8.442 J6.3
G01 X44.776 Y29.941
G02X43.668 Y29.166 I-6.817 J8.567
G01 X43.083 Y28.839
X42.469 Y28.545
X41.839 Y28.289
X41.196 Y28.076
G02X39.212 Y27.688 I-2.958 J9.863
G01 X38.397 Y27.639
G02X36.777 Y27.732 I-0.213 J10.441
G01 X35.978 Y27.872
G02X34.547 Y28.288 I2.281 J10.517
G01 X33.921 Y28.541
X33.311 Y28.835
G02X31.094 Y30.38 I4.925 J9.43
G01 X30.609 Y30.852
X30.154 Y31.353
X29.733 Y31.878
X29.349 Y32.43
G02X28.411 Y34.23 I8.929 J5.797
X27.726 Y36.843 I9.705 J3.94
X27.661 Y38.871 I10.41 J1.348
G01 X27.726 Y39.54
G02X28.41 Y42.153 I10.356 J-1.315
X30.61 Y45.537 I9.751 J-3.932
X31.612 Y46.445 I7.514 J-7.285
X34.548 Y48.101 I6.57 J-8.219
X37.183 Y48.703 I3.687 J-10.072
G01 X37.859 Y48.747
X38.53 Y48.747
G00 Z30
X38.565 Y49.747
Z14
G01 Z8 F100
G02X40.039 Y49.602 I-0.455 J-12.195 F199.99
X42.185 Y49.039 I-1.874 J-11.516
G01 X42.872 Y48.762
X43.538 Y48.441
G02X48.606 Y43.208 I-5.355 J-10.257
X49.594 Y40.078 I-10.484 J-5.03
X49.746 Y38.442 I-11.434 J-1.887
X49.538 Y35.986 I-11.654 J-0.249
X49.161 Y34.553 I-11.295 J2.205
G01 X48.906 Y33.857
X48.605 Y33.18
X48.263 Y32.523
G02X47.457 Y31.284 I-10.223 J5.768
X46.494 Y30.154 I-9.322 J6.968
G01 X45.963 Y29.639
X45.4 Y29.159
G02X44.187 Y28.311 I-7.679 J9.693
G01 X43.544 Y27.951
X42.874 Y27.63
X42.185 Y27.351
G02X40.037 Y26.786 I-4.07 J11.108
G01 X39.306 Y26.692
G02X34.906 Y27.116 I-1.121 J11.406
G01 X34.202 Y27.349
X33.516 Y27.627
G02X32.202 Y28.313 I4.806 J10.807
G01 X31.581 Y28.717
X30.988 Y29.16
G02X29.891 Y30.157 I6.895 J8.689
G01 X29.393 Y30.704
X28.932 Y31.28
G02X28.128 Y32.519 I9.186 J6.841
G01 X27.784 Y33.177
X27.484 Y33.855
X27.227 Y34.551
X27.017 Y35.261
G02X26.734 Y36.716 I11.596 J3.01
G01 X26.663 Y37.453
X26.639 Y38.195
X26.663 Y38.936
X26.734 Y39.67
X26.854 Y40.403
G02X27.227 Y41.835 I11.077 J-2.12
X27.784 Y43.209 I11.193 J-3.737
G01 X28.128 Y43.868
G02X29.395 Y45.687 I9.916 J-5.556
X30.425 Y46.748 I8.547 J-7.267
G01 X30.989 Y47.228
X31.582 Y47.672
G02X33.517 Y48.762 I6.581 J-9.421
G01 X34.203 Y49.04
X34.907 Y49.274
G02X36.351 Y49.604 I3.315 J-11.183
G01 X37.087 Y49.699
X37.827 Y49.747
X38.565 Y49.747
G00 Z30
X38.599 Y50.747
Z14
G01 Z8 F100
G02X40.199 Y50.59 I-0.437 J-12.687 F199.99
X43.277 Y49.678 I-2.007 J-12.425
X45.38 Y48.494 I-5.11 J-11.537
X48.72 Y45.043 I-7.218 J-10.328
X49.509 Y43.641 I-10.444 J-6.8
X50.521 Y35.797 I-11.341 J-5.45
X50.112 Y34.24 I-12.214 J2.376
G01 X49.834 Y33.482
G02X48.259 Y30.686 I-11.694 J4.746
X47.214 Y29.459 I-10.189 J7.619
G01 X46.637 Y28.899
X46.024 Y28.377
X45.379 Y27.896
G02X44.006 Y27.064 I-6.862 J9.775
G01 X43.279 Y26.715
G02X41.767 Y26.159 I-5.119 J11.588
G01 X40.987 Y25.954
X40.198 Y25.799
X39.402 Y25.696
X38.597 Y25.646
G02X35.401 Y25.953 I-0.419 J12.425
X32.386 Y27.063 I2.804 J12.268
G01 X31.684 Y27.458
G02X30.365 Y28.379 I6.475 J10.679
X29.173 Y29.461 I7.694 J9.674
X27.257 Y32.029 I8.888 J8.63
X26.049 Y35.009 I10.949 J6.173
G01 X25.871 Y35.794
X25.742 Y36.588
X25.665 Y37.39
X25.639 Y38.196
X25.665 Y39.001
X25.742 Y39.799
X25.872 Y40.595
X26.05 Y41.382
X26.278 Y42.151
X26.557 Y42.907
G02X27.257 Y44.359 I11.607 J-4.701
G01 X27.673 Y45.048
X28.132 Y45.707
G02X29.175 Y46.932 I10.156 J-7.59
X31.01 Y48.493 I9.104 J-8.843
G01 X31.684 Y48.932
X32.385 Y49.326
X33.112 Y49.677
X33.858 Y49.979
G02X37.795 Y50.747 I4.328 J-11.714
G01 X38.599 Y50.747
G00 Z30
X38.632 Y51.747
Z14
G01 Z8 F100
G02X42.878 Y50.92 I-0.459 J-13.673 F199.99
X44.466 Y50.215 I-4.614 J-12.535
X45.953 Y49.315 I-6.178 J-11.886
X47.936 Y47.625 I-7.755 J-11.108
G01 X48.521 Y46.982
G02X51.063 Y42.466 I-10.325 J-8.785
X51.725 Y37.326 I-12.914 J-4.275
G01 X51.642 Y36.462
X51.504 Y35.606
X51.31 Y34.759
X51.062 Y33.925
X50.762 Y33.108
X50.411 Y32.314
X50.009 Y31.545
X49.558 Y30.8
X49.061 Y30.088
X48.518 Y29.408
X47.934 Y28.764
G02X45.225 Y26.602 I-9.731 J9.415
G01 X44.468 Y26.177
G02X42.878 Y25.474 I-6.29 J12.077
G01 X42.052 Y25.2
G02X40.359 Y24.812 I-3.901 J13.136
G01 X39.498 Y24.701
G02X37.76 Y24.646 I-1.303 J13.702
X34.339 Y25.199 I0.427 J13.505
G01 X33.514 Y25.473
X32.707 Y25.799
G02X28.456 Y28.765 I5.5 J12.412
G01 X27.871 Y29.407
G02X26.832 Y30.798 I10.526 J8.946
G01 X26.385 Y31.54
G02X25.082 Y34.756 I11.807 J6.655
G01 X24.889 Y35.603
X24.75 Y36.461
G02X24.667 Y39.066 I13.723 J1.741
G01 X24.75 Y39.928
X24.89 Y40.787
X25.082 Y41.635
X25.329 Y42.467
X25.63 Y43.283
X25.982 Y44.078
X26.385 Y44.85
X26.834 Y45.594
X27.331 Y46.306
X27.873 Y46.985
G02X29.081 Y48.233 I10.174 J-8.64
G01 X29.743 Y48.795
X30.438 Y49.314
G02X33.513 Y50.918 I7.742 J-11.094
G01 X34.338 Y51.192
X35.18 Y51.413
X36.033 Y51.581
G02X37.763 Y51.747 I2.186 J-13.69
G01 X38.632 Y51.747
G00 Z30
X38.664 Y52.748
Z14
G01 Z8 F100
X39.595 Y52.689 F199.99
X40.52 Y52.569
G02X42.339 Y52.153 I-2.462 J-14.954
X44.088 Y51.509 I-3.984 J-13.519
X45.744 Y50.645 I-6.096 J-13.704
G01 X46.526 Y50.136
G02X49.866 Y46.903 I-8.395 J-12.014
X51.313 Y44.512 I-11.814 J-8.783
X52.485 Y40.978 I-13.044 J-6.287
G01 X52.634 Y40.057
G02X52.754 Y38.195 I-14.368 J-1.86
X52.487 Y35.415 I-14.595 J-0
G01 X52.278 Y34.505
X52.012 Y33.61
X51.69 Y32.734
G02X50.881 Y31.054 I-13.083 J5.265
X48.654 Y28.069 I-12.713 J7.161
G01 X47.985 Y27.419
G02X45.744 Y25.747 I-9.888 J10.915
G01 X44.931 Y25.29
G02X43.224 Y24.536 I-6.659 J12.768
X39.594 Y23.706 I-5.031 J13.65
G01 X38.662 Y23.647
G02X36.798 Y23.705 I-0.467 J14.973
G01 X35.875 Y23.825
G02X30.649 Y25.748 I2.326 J14.384
X25.994 Y30.254 I7.578 J12.486
G01 X25.513 Y31.051
X25.08 Y31.881
X24.702 Y32.734
X24.38 Y33.608
X24.115 Y34.503
G02X23.64 Y38.196 I14.07 J3.686
G01 X23.669 Y39.13
X23.758 Y40.057
X23.908 Y40.978
X24.114 Y41.889
X24.38 Y42.783
X24.703 Y43.659
X25.081 Y44.513
X25.513 Y45.341
X25.996 Y46.14
G02X28.41 Y48.975 I12.25 J-7.986
X29.867 Y50.136 I10.002 J-11.057
G01 X30.648 Y50.645
X31.462 Y51.102
X32.303 Y51.508
G02X35.874 Y52.569 I5.923 J-13.396
X37.731 Y52.747 I2.343 J-14.677
G01 X38.664 Y52.748
G00 Z30
X37.699 Y53.748
Z14
G01 Z8 F100
X38.696 Y53.748 F199.99
G02X40.681 Y53.557 I-0.462 J-15.217
X42.624 Y53.113 I-2.517 J-15.491
X44.494 Y52.424 I-4.204 J-14.292
G01 X45.394 Y51.99
X46.263 Y51.501
G02X50.044 Y48.282 I-8 J-13.227
G01 X50.668 Y47.502
G02X52.963 Y43.099 I-12.477 J-9.303
X53.723 Y37.2 I-14.748 J-4.898
G01 X53.628 Y36.207
X53.469 Y35.224
G02X52.618 Y32.36 I-15.37 J3.008
G01 X52.215 Y31.447
G02X51.236 Y29.712 I-13.794 J6.64
G01 X50.666 Y28.893
G02X47.099 Y25.437 I-12.431 J9.261
X44.495 Y23.971 I-8.819 J12.62
X40.679 Y22.838 I-6.338 J14.356
X37.698 Y22.647 I-2.497 J15.618
X35.715 Y22.838 I0.466 J15.231
X33.77 Y23.283 I2.609 J15.876
X31.001 Y24.405 I4.368 J14.757
X28.496 Y26.034 I7.135 J13.712
G01 X27.737 Y26.68
X27.02 Y27.374
X26.35 Y28.112
X25.727 Y28.892
G02X24.641 Y30.562 I12.259 J9.16
X23.775 Y32.359 I13.967 J7.838
X22.767 Y36.206 I14.557 J5.869
G01 X22.672 Y37.199
G02X22.671 Y39.194 I15.777 J1.005
X22.926 Y41.171 I15.532 J-0.998
G01 X23.147 Y42.143
X23.431 Y43.099
X23.776 Y44.035
G02X25.158 Y46.686 I14.575 J-5.912
G01 X25.728 Y47.503
G02X27.738 Y49.716 I12.562 J-9.39
X30.131 Y51.502 I10.51 J-11.585
X33.769 Y53.112 I8.086 J-13.356
G01 X34.735 Y53.365
X35.715 Y53.557
G02X37.699 Y53.748 I2.494 J-15.51
G00 Z30
X38.729 Y54.749
Z14
G01 Z8 F100
X39.788 Y54.681 F199.99
X40.841 Y54.545
G02X43.917 Y53.739 I-2.648 J-16.379
X47.672 Y51.779 I-5.761 J-15.614
G01 X48.523 Y51.144
G02X50.093 Y49.718 I-10.095 J-12.691
X51.47 Y48.101 I-12.169 J-11.758
G01 X52.076 Y47.232
X52.626 Y46.324
X53.117 Y45.382
G02X54.621 Y36.08 I-14.914 J-7.184
G01 X54.452 Y35.033
G02X53.546 Y31.985 I-16.251 J3.171
G01 X53.117 Y31.014
X52.626 Y30.073
X52.075 Y29.166
X51.468 Y28.295
X50.806 Y27.465
X50.093 Y26.678
X49.33 Y25.939
X48.523 Y25.252
X47.672 Y24.617
X46.783 Y24.038
G02X43.916 Y22.658 I-8.572 J14.141
G01 X42.908 Y22.324
X41.882 Y22.054
X40.84 Y21.851
G02X38.729 Y21.649 I-2.576 J15.79
X34.514 Y22.055 I-0.551 J16.352
G01 X33.487 Y22.324
X32.479 Y22.657
X31.495 Y23.057
X30.539 Y23.518
X29.614 Y24.038
G02X24.927 Y28.294 I8.604 J14.184
X23.279 Y31.014 I13.139 J9.82
X22.482 Y32.98 I14.884 J7.178
G01 X22.181 Y33.999
X21.943 Y35.033
X21.775 Y36.08
X21.674 Y37.136
G02X21.775 Y40.316 I16.69 J1.061
X22.181 Y42.398 I16.178 J-2.074
G01 X22.482 Y43.415
G02X23.28 Y45.383 I15.925 J-5.311
G01 X23.771 Y46.324
G02X26.303 Y49.718 I14.342 J-8.058
G01 X27.066 Y50.457
G02X29.614 Y52.359 I11.158 J-12.291
G01 X30.54 Y52.879
G02X32.479 Y53.739 I7.706 J-14.76
X35.556 Y54.545 I5.738 J-15.63
X38.729 Y54.749 I2.642 J-16.315
G00 Z30
X38.761 Y55.75
Z14
G01 Z8 F100
X39.885 Y55.677 F199.99
X41.001 Y55.533
X42.106 Y55.318
X43.195 Y55.033
G02X45.307 Y54.255 I-4.951 J-16.696
X50.004 Y51.198 I-7.09 J-16.031
G01 X50.813 Y50.414
G02X52.272 Y48.701 I-12.862 J-12.433
G01 X52.915 Y47.778
G02X54.475 Y44.788 I-14.714 J-9.579
X55.184 Y42.652 I-16.08 J-6.523
G01 X55.435 Y41.556
G02X55.722 Y39.324 I-17.353 J-3.365
X55.722 Y37.075 I-17.069 J-1.124
X55.435 Y34.842 I-17.624 J1.13
G01 X55.184 Y33.746
G02X51.569 Y26.817 I-16.984 J4.453
X49.147 Y24.47 I-13.372 J11.376
G01 X48.245 Y23.797
X47.302 Y23.183
X46.32 Y22.631
G02X38.761 Y20.649 I-8.118 J15.558
G01 X37.637 Y20.649
G02X35.397 Y20.865 I0.555 J17.487
G01 X34.292 Y21.08
X33.203 Y21.365
G02X31.091 Y22.143 I4.951 J16.696
X29.096 Y23.183 I7.223 J16.29
G01 X28.153 Y23.797
G02X26.394 Y25.2 I9.976 J14.311
X22.379 Y30.58 I11.787 J12.984
X21.214 Y33.746 I15.715 J7.58
X20.784 Y35.953 I16.636 J4.386
X20.676 Y39.324 I17.446 J2.246
X21.214 Y42.652 I17.325 J-1.093
X21.923 Y44.788 I16.789 J-4.387
G01 X22.379 Y45.818
X22.9 Y46.816
G02X24.126 Y48.701 I15.405 J-8.678
G01 X24.829 Y49.581
G02X26.394 Y51.198 I13.375 J-11.379
G01 X27.251 Y51.928
X28.153 Y52.601
X29.096 Y53.215
X30.078 Y53.767
X31.091 Y54.255
G02X33.203 Y55.033 I7.063 J-15.918
G01 X34.292 Y55.318
X35.397 Y55.533
G02X38.761 Y55.75 I2.802 J-17.254
G00 Z30
Z30
X38.224 Y38.734
Z13
G01 Z7 F100
X38.326 Y38.711 F199.99
G02X38.513 Y38.616 I-0.19 J-0.606
G01 X38.584 Y38.551
G02X38.693 Y38.361 I-0.429 J-0.372
G01 X38.72 Y38.248
G02X38.703 Y38.033 I-0.545 J-0.065
X38.588 Y37.817 I-0.577 J0.169
X38.524 Y37.758 I-0.237 J0.193
G01 X38.498 Y37.741
G02X38.104 Y37.649 I-0.326 J0.509
X37.908 Y37.718 I0.051 J0.459
G01 X37.833 Y37.771
G02X37.705 Y37.934 I0.338 J0.397
G01 X37.672 Y38.021
G02X37.645 Y38.22 I0.526 J0.172
G01 X37.65 Y38.268
G02X37.72 Y38.464 I0.554 J-0.087
G01 X37.773 Y38.537
X37.834 Y38.598
X37.938 Y38.673
X37.943 Y38.676
X38.033 Y38.71
X38.124 Y38.729
X38.224 Y38.734
G00 Z30
X38.251 Y39.737
Z13
G01 Z7 F100
X38.364 Y39.728 F199.99
G02X38.874 Y39.569 I-0.235 J-1.652
X39.503 Y38.991 I-0.654 J-1.343
X39.722 Y38.037 I-1.305 J-0.801
X39.563 Y37.487 I-1.537 J0.146
G01 X39.452 Y37.3
G02X39.223 Y37.036 I-1.241 J0.845
G01 X39.109 Y36.945
X38.991 Y36.869
G02X38.486 Y36.673 I-0.823 J1.373
X37.709 Y36.715 I-0.308 J1.5
X37.374 Y36.871 I0.437 J1.377
G01 X37.2 Y36.996
X37.065 Y37.121
X36.941 Y37.269
G02X36.713 Y37.729 I1.144 J0.853
G01 X36.656 Y37.98
G02X36.643 Y38.248 I1.486 J0.206
G01 X36.662 Y38.431
G02X36.773 Y38.807 I1.57 J-0.259
G01 X36.865 Y38.987
G02X37.184 Y39.362 I1.317 J-0.797
G01 X37.401 Y39.519
X37.52 Y39.585
G02X37.998 Y39.724 I0.661 J-1.383
G01 X38.251 Y39.737
G00 Z30
X38.266 Y40.739
Z13
G01 Z7 F100
X38.493 Y40.721 F199.99
X38.738 Y40.677
G02X39.323 Y40.465 I-0.607 J-2.59
X39.84 Y40.126 I-1.178 J-2.36
X40.541 Y39.164 I-1.698 J-1.973
X40.705 Y38.559 I-2.37 J-0.967
X40.719 Y37.94 I-2.501 J-0.366
G01 X40.673 Y37.646
X40.597 Y37.368
X40.459 Y37.037
G02X40.053 Y36.451 I-2.293 J1.155
G01 X39.891 Y36.29
G02X39.482 Y35.996 I-1.602 J1.798
X38.704 Y35.695 I-1.277 J2.146
G01 X38.419 Y35.651
G02X37.661 Y35.692 I-0.239 J2.599
X37.143 Y35.862 I0.6 J2.703
G01 X36.845 Y36.021
X36.567 Y36.221
G02X36.143 Y36.665 I1.644 J1.995
G01 X36.006 Y36.867
X35.896 Y37.072
G02X35.668 Y37.819 I2.422 J1.147
G01 X35.644 Y38.053
X35.644 Y38.3
G02X35.738 Y38.88 I2.593 J-0.122
G01 X35.853 Y39.203
X36.009 Y39.51
G02X36.864 Y40.365 I2.175 J-1.32
X37.31 Y40.583 I1.306 J-2.107
X37.885 Y40.72 I0.88 J-2.421
G01 X38.266 Y40.739
G00 Z30
X38.282 Y41.741
Z13
G01 Z7 F100
X38.622 Y41.714 F199.99
G02X39.293 Y41.561 I-0.443 J-3.49
X40.219 Y41.097 I-1.133 J-3.418
G01 X40.489 Y40.889
X40.735 Y40.658
G02X41.331 Y39.838 I-2.573 J-2.496
G01 X41.472 Y39.536
G02X41.717 Y37.844 I-3.312 J-1.343
G01 X41.653 Y37.436
X41.545 Y37.043
G02X40.798 Y35.781 I-3.323 J1.115
X40.299 Y35.334 I-2.538 J2.331
X39.661 Y34.961 I-2.263 J3.138
X38.91 Y34.715 I-1.477 J3.241
X38.12 Y34.638 I-0.749 J3.597
X37.463 Y34.711 I0.135 J4.208
G01 X37.21 Y34.775
G02X36.736 Y34.947 I0.845 J3.069
X35.584 Y35.776 I1.479 J3.271
G01 X35.344 Y36.063
G02X34.986 Y36.654 I2.867 J2.14
X34.68 Y37.656 I3.39 J1.583
G01 X34.644 Y38.001
X34.644 Y38.348
X34.676 Y38.687
X34.774 Y39.153
G02X35.148 Y40.023 I3.613 J-1.037
X36.341 Y41.22 I3.042 J-1.839
G01 X36.709 Y41.417
X36.968 Y41.524
X37.255 Y41.615
G02X38.282 Y41.741 I0.935 J-3.373
G00 Z30
X38.311 Y42.743
Z13
G01 Z7 F100
G02X39.184 Y42.631 I-0.148 J-4.614 F199.99
X40.023 Y42.351 I-1.027 J-4.475
G01 X40.417 Y42.154
X40.791 Y41.919
X41.139 Y41.652
G02X41.741 Y41.031 I-3.028 J-3.537
G01 X41.996 Y40.679
X42.217 Y40.306
X42.4 Y39.913
G02X42.653 Y39.064 I-4.294 J-1.741
X42.714 Y37.742 I-4.534 J-0.871
X42.495 Y36.723 I-4.604 J0.456
G01 X42.301 Y36.241
G02X41.536 Y35.104 I-4.065 J1.909
X40.528 Y34.288 I-3.245 J2.978
X38.613 Y33.659 I-2.345 J3.911
X37.593 Y33.678 I-0.431 J4.223
X36.935 Y33.814 I0.467 J3.92
X36.317 Y34.039 I1.197 J4.25
X35.195 Y34.761 I1.908 J4.198
X34.544 Y35.462 I3.165 J3.592
G01 X34.294 Y35.833
X34.082 Y36.226
X33.911 Y36.642
G02X33.645 Y37.949 I4.315 J1.558
X33.686 Y38.84 I4.649 J0.232
X34.28 Y40.523 I4.593 J-0.674
G01 X34.47 Y40.816
X34.715 Y41.13
X34.993 Y41.43
G02X36.281 Y42.323 I3.241 J-3.299
G01 X36.626 Y42.465
X36.997 Y42.583
G02X37.846 Y42.731 I1.249 J-4.659
G01 X38.311 Y42.743
G00 Z30
X38.338 Y43.744
Z13
G01 Z7 F100
G02X39.929 Y43.461 I-0.143 J-5.419 F199.99
X41.788 Y42.416 I-1.772 J-5.328
X42.834 Y41.229 I-3.607 J-4.232
G01 X43.103 Y40.773
X43.328 Y40.291
G02X43.711 Y37.64 I-5.149 J-2.097
X42.906 Y35.259 I-5.527 J0.542
X41.495 Y33.729 I-4.665 J2.887
G01 X41.042 Y33.429
G02X39.57 Y32.814 I-2.842 J4.733
G01 X39.125 Y32.719
G02X38.298 Y32.638 I-1.01 J6.058
X37.464 Y32.686 I-0.092 J5.656
X36.66 Y32.853 I0.631 J5.058
X35.905 Y33.128 I1.472 J5.216
G01 X35.549 Y33.305
G02X34.095 Y34.44 I2.665 J4.912
X32.969 Y36.304 I4.016 J3.698
X32.695 Y38.981 I5.24 J1.888
X32.888 Y39.839 I6.065 J-0.913
G01 X33.036 Y40.252
G02X33.42 Y41.034 I5.196 J-2.066
G01 X33.655 Y41.397
X33.953 Y41.779
G02X35.057 Y42.774 I4.172 J-3.519
G01 X35.491 Y43.042
X35.862 Y43.232
X36.284 Y43.406
X36.736 Y43.549
X37.203 Y43.655
G02X38.338 Y43.744 I0.972 J-5.116
G00 Z30
X38.376 Y44.745
Z13
G01 Z7 F100
X39.013 Y44.694 F199.99
X39.638 Y44.583
G02X40.834 Y44.186 I-1.489 J-6.488
X41.934 Y43.566 I-2.702 J-6.081
G01 X42.437 Y43.179
G02X44.253 Y40.675 I-4.231 J-4.979
G01 X44.421 Y40.215
X44.555 Y39.741
G02X44.712 Y38.801 I-6.4 J-1.552
G01 X44.74 Y38.169
G02X44.617 Y36.921 I-6.644 J0.024
G01 X44.467 Y36.313
X44.259 Y35.721
G02X43.447 Y34.275 I-6.066 J2.455
X41.557 Y32.57 I-5.215 J3.881
X39.823 Y31.846 I-3.352 J5.591
X38.759 Y31.664 I-1.647 J6.431
G01 X38.318 Y31.638
X37.816 Y31.648
G02X36.857 Y31.774 I0.412 J6.854
G01 X36.386 Y31.891
G02X35.493 Y32.217 I1.795 J6.303
G01 X35.07 Y32.427
X34.613 Y32.7
X34.18 Y33.007
G02X32.675 Y34.649 I4.089 J5.259
X32.031 Y35.955 I5.669 J3.607
X31.75 Y36.992 I5.795 J2.127
X31.65 Y38.596 I6.543 J1.213
G01 X31.705 Y39.125
G02X31.933 Y40.136 I6.889 J-1.022
G01 X32.107 Y40.624
G02X32.84 Y41.977 I6.125 J-2.443
X33.578 Y42.847 I5.483 J-3.903
X35 Y43.914 I4.585 J-4.63
G01 X35.443 Y44.141
X35.943 Y44.347
G02X37.02 Y44.639 I2.265 J-6.222
G01 X37.506 Y44.71
X37.943 Y44.743
X38.376 Y44.745
G00 Z30
X38.413 Y45.746
Z13
G01 Z7 F100
G02X39.861 Y45.56 I-0.226 J-7.496 F199.99
G01 X40.561 Y45.364
G02X42.508 Y44.388 I-2.366 J-7.15
X43.619 Y43.443 I-4.356 J-6.247
X44.356 Y42.554 I-5.538 J-5.341
G01 X44.673 Y42.068
X44.944 Y41.572
X45.18 Y41.055
X45.374 Y40.523
X45.528 Y39.978
G02X45.71 Y38.888 I-7.284 J-1.776
X44.52 Y34.066 I-7.53 J-0.699
G01 X44.249 Y33.676
X43.914 Y33.26
G02X43.128 Y32.474 I-5.699 J4.913
G01 X42.674 Y32.112
G02X39.364 Y30.731 I-4.48 J6.082
G01 X38.85 Y30.668
X38.338 Y30.638
X37.759 Y30.649
G02X36.113 Y30.929 I0.451 J7.629
X34.591 Y31.55 I2.043 J7.185
G01 X34.067 Y31.862
X33.571 Y32.214
G02X32.761 Y32.939 I4.617 J5.973
X32.136 Y33.673 I6.335 J6.027
G01 X31.834 Y34.108
G02X31.33 Y35.032 I6.059 J3.904
G01 X31.091 Y35.613
X30.903 Y36.205
X30.766 Y36.811
X30.677 Y37.431
G02X30.715 Y39.269 I7.578 J0.762
X30.978 Y40.433 I7.986 J-1.192
G01 X31.178 Y40.996
G02X32.023 Y42.555 I7.172 J-2.879
G01 X32.377 Y43.015
G02X34.018 Y44.488 I5.759 J-4.766
G01 X34.513 Y44.788
X35.024 Y45.05
G02X36.196 Y45.477 I3.132 J-6.775
G01 X36.837 Y45.623
X37.396 Y45.705
G02X38.413 Y45.746 I0.791 J-7.008
G00 Z30
X38.451 Y46.747
Z13
G01 Z7 F100
G02X44.335 Y44.143 I-0.27 J-8.559 F199.99
X45.532 Y42.583 I-6.138 J-5.949
G01 X45.84 Y42.02
G02X46.501 Y40.215 I-7.49 J-3.766
X46.707 Y38.982 I-8.048 J-1.978
G01 X46.743 Y38.375
X46.732 Y37.74
G02X46.568 Y36.458 I-8.469 J0.432
G01 X46.408 Y35.816
G02X45.36 Y33.523 I-8.078 J2.306
G01 X45.05 Y33.077
G02X44.263 Y32.165 I-6.894 J5.154
X43.269 Y31.307 I-6.158 J6.13
G01 X42.728 Y30.939
X42.157 Y30.613
G02X41.146 Y30.165 I-4.29 J8.317
X40.093 Y29.852 I-3.037 J8.291
X38.359 Y29.638 I-1.972 J8.853
G01 X37.702 Y29.65
X37.046 Y29.714
X36.424 Y29.822
G02X35.264 Y30.154 I1.808 J8.51
X34.114 Y30.672 I2.946 J8.077
G01 X33.522 Y31.024
G02X32.433 Y31.865 I4.632 J7.124
X31.675 Y32.651 I5.732 J6.286
G01 X31.335 Y33.075
G02X30.419 Y34.618 I6.752 J5.052
G01 X30.151 Y35.271
G02X29.782 Y36.631 I7.894 J2.871
G01 X29.682 Y37.33
G02X29.657 Y38.741 I8.403 J0.854
X29.849 Y40.077 I8.34 J-0.516
X30.848 Y42.58 I8.326 J-1.872
X32.05 Y44.147 I7.178 J-4.261
G01 X32.437 Y44.522
G02X33.467 Y45.323 I5.78 J-6.369
G01 X34.025 Y45.662
X34.605 Y45.959
G02X35.934 Y46.443 I3.507 J-7.564
G01 X36.653 Y46.607
X37.286 Y46.7
G02X38.451 Y46.747 I0.903 J-7.92
G00 Z30
X38.491 Y47.747
Z13
G01 Z7 F100
X39.31 Y47.683 F199.99
G02X41.495 Y47.159 I-1.196 J-9.808
G01 X42.062 Y46.93
G02X43.27 Y46.286 I-3.799 J-8.581
G01 X43.905 Y45.85
X44.502 Y45.368
X45.055 Y44.839
G02X46 Y43.699 I-6.783 J-6.584
X46.736 Y42.468 I-7.739 J-5.462
X47.618 Y39.75 I-8.537 J-4.272
X47.744 Y38.397 I-9.86 J-1.6
X47.669 Y36.982 I-9.682 J-0.196
G01 X47.548 Y36.255
G02X46.855 Y34.159 I-9.407 J1.947
X46.201 Y32.98 I-8.79 J4.105
G01 X45.853 Y32.48
X45.47 Y32
G02X42.622 Y29.727 I-7.253 J6.167
G01 X42.064 Y29.46
X41.493 Y29.227
X40.91 Y29.034
X40.318 Y28.877
X39.721 Y28.76
X39.118 Y28.684
G02X36.912 Y28.723 I-0.939 J9.273
X35.533 Y29.015 I1.287 J9.481
X34.326 Y29.455 I2.649 J9.142
X31.762 Y31.123 I3.895 J8.792
G01 X31.328 Y31.546
X30.914 Y32.002
X30.534 Y32.477
G02X29.869 Y33.499 I7.753 J5.772
X28.659 Y38.805 I8.324 J4.689
X29.99 Y43.093 I9.519 J-0.604
X30.837 Y44.293 I8.162 J-4.862
G01 X31.33 Y44.842
X31.767 Y45.265
G02X34.186 Y46.868 I6.475 J-7.145
G01 X34.891 Y47.161
G02X36.469 Y47.591 I3.354 J-9.2
X37.891 Y47.747 I1.741 J-9.311
G01 X38.491 Y47.747
G00 Z30
X38.53 Y48.747
Z13
G01 Z7 F100
G02X41.198 Y48.311 I-0.369 J-10.641 F199.99
G01 X41.84 Y48.099
X42.467 Y47.846
X43.07 Y47.556
G02X45.163 Y46.12 I-4.95 J-9.458
G01 X45.775 Y45.536
X46.338 Y44.906
G02X48.606 Y39.914 I-8.138 J-6.708
X48.745 Y38.42 I-10.462 J-1.726
G01 X48.734 Y37.668
G02X47.391 Y33.013 I-10.519 J0.513
G01 X47.04 Y32.435
X46.655 Y31.882
G02X45.289 Y30.379 I-8.442 J6.3
G01 X44.776 Y29.941
G02X43.668 Y29.166 I-6.817 J8.567
G01 X43.083 Y28.839
X42.469 Y28.545
X41.839 Y28.289
X41.196 Y28.076
G02X39.212 Y27.688 I-2.958 J9.863
G01 X38.397 Y27.639
G02X36.777 Y27.732 I-0.213 J10.441
G01 X35.978 Y27.872
G02X34.547 Y28.288 I2.281 J10.517
G01 X33.921 Y28.541
X33.311 Y28.835
G02X31.094 Y30.38 I4.925 J9.43
G01 X30.609 Y30.852
X30.154 Y31.353
X29.733 Y31.878
X29.349 Y32.43
G02X28.411 Y34.23 I8.929 J5.797
X27.726 Y36.843 I9.705 J3.94
X27.661 Y38.871 I10.41 J1.348
G01 X27.726 Y39.54
G02X28.41 Y42.153 I10.356 J-1.315
X30.61 Y45.537 I9.751 J-3.932
X31.612 Y46.445 I7.514 J-7.285
X34.548 Y48.101 I6.57 J-8.219
X37.183 Y48.703 I3.687 J-10.072
G01 X37.859 Y48.747
X38.53 Y48.747
G00 Z30
X38.565 Y49.747
Z13
G01 Z7 F100
G02X40.039 Y49.602 I-0.455 J-12.195 F199.99
X42.185 Y49.039 I-1.874 J-11.516
G01 X42.872 Y48.762
X43.538 Y48.441
G02X48.606 Y43.208 I-5.355 J-10.257
X49.594 Y40.078 I-10.484 J-5.03
X49.746 Y38.442 I-11.434 J-1.887
X49.538 Y35.986 I-11.654 J-0.249
X49.161 Y34.553 I-11.295 J2.205
G01 X48.906 Y33.857
X48.605 Y33.18
X48.263 Y32.523
G02X47.457 Y31.284 I-10.223 J5.768
X46.494 Y30.154 I-9.322 J6.968
G01 X45.963 Y29.639
X45.4 Y29.159
G02X44.187 Y28.311 I-7.679 J9.693
G01 X43.544 Y27.951
X42.874 Y27.63
X42.185 Y27.351
G02X40.037 Y26.786 I-4.07 J11.108
G01 X39.306 Y26.692
G02X34.906 Y27.116 I-1.121 J11.406
G01 X34.202 Y27.349
X33.516 Y27.627
G02X32.202 Y28.313 I4.806 J10.807
G01 X31.581 Y28.717
X30.988 Y29.16
G02X29.891 Y30.157 I6.895 J8.689
G01 X29.393 Y30.704
X28.932 Y31.28
G02X28.128 Y32.519 I9.186 J6.841
G01 X27.784 Y33.177
X27.484 Y33.855
X27.227 Y34.551
X27.017 Y35.261
G02X26.734 Y36.716 I11.596 J3.01
G01 X26.663 Y37.453
X26.639 Y38.195
X26.663 Y38.936
X26.734 Y39.67
X26.854 Y40.403
G02X27.227 Y41.835 I11.077 J-2.12
X27.784 Y43.209 I11.193 J-3.737
G01 X28.128 Y43.868
G02X29.395 Y45.687 I9.916 J-5.556
X30.425 Y46.748 I8.547 J-7.267
G01 X30.989 Y47.228
X31.582 Y47.672
G02X33.517 Y48.762 I6.581 J-9.421
G01 X34.203 Y49.04
X34.907 Y49.274
G02X36.351 Y49.604 I3.315 J-11.183
G01 X37.087 Y49.699
X37.827 Y49.747
X38.565 Y49.747
G00 Z30
X38.599 Y50.747
Z13
G01 Z7 F100
G02X40.199 Y50.59 I-0.437 J-12.687 F199.99
X43.277 Y49.678 I-2.007 J-12.425
X45.38 Y48.494 I-5.11 J-11.537
X48.72 Y45.043 I-7.218 J-10.328
X49.509 Y43.641 I-10.444 J-6.8
X50.521 Y35.797 I-11.341 J-5.45
X50.112 Y34.24 I-12.214 J2.376
G01 X49.834 Y33.482
G02X48.259 Y30.686 I-11.694 J4.746
X47.214 Y29.459 I-10.189 J7.619
G01 X46.637 Y28.899
X46.024 Y28.377
X45.379 Y27.896
G02X44.006 Y27.064 I-6.862 J9.775
G01 X43.279 Y26.715
G02X41.767 Y26.159 I-5.119 J11.588
G01 X40.987 Y25.954
X40.198 Y25.799
X39.402 Y25.696
X38.597 Y25.646
G02X35.401 Y25.953 I-0.419 J12.425
X32.386 Y27.063 I2.804 J12.268
G01 X31.684 Y27.458
G02X30.365 Y28.379 I6.475 J10.679
X29.173 Y29.461 I7.694 J9.674
X27.257 Y32.029 I8.888 J8.63
X26.049 Y35.009 I10.949 J6.173
G01 X25.871 Y35.794
X25.742 Y36.588
X25.665 Y37.39
X25.639 Y38.196
X25.665 Y39.001
X25.742 Y39.799
X25.872 Y40.595
X26.05 Y41.382
X26.278 Y42.151
X26.557 Y42.907
G02X27.257 Y44.359 I11.607 J-4.701
G01 X27.673 Y45.048
X28.132 Y45.707
G02X29.175 Y46.932 I10.156 J-7.59
X31.01 Y48.493 I9.104 J-8.843
G01 X31.684 Y48.932
X32.385 Y49.326
X33.112 Y49.677
X33.858 Y49.979
G02X37.795 Y50.747 I4.328 J-11.714
G01 X38.599 Y50.747
G00 Z30
X38.632 Y51.747
Z13
G01 Z7 F100
G02X42.878 Y50.92 I-0.459 J-13.673 F199.99
X44.466 Y50.215 I-4.614 J-12.535
X45.953 Y49.315 I-6.178 J-11.886
X47.936 Y47.625 I-7.755 J-11.108
G01 X48.521 Y46.982
G02X51.063 Y42.466 I-10.325 J-8.785
X51.725 Y37.326 I-12.914 J-4.275
G01 X51.642 Y36.462
X51.504 Y35.606
X51.31 Y34.759
X51.062 Y33.925
X50.762 Y33.108
X50.411 Y32.314
X50.009 Y31.545
X49.558 Y30.8
X49.061 Y30.088
X48.518 Y29.408
X47.934 Y28.764
G02X45.225 Y26.602 I-9.731 J9.415
G01 X44.468 Y26.177
G02X42.878 Y25.474 I-6.29 J12.077
G01 X42.052 Y25.2
G02X40.359 Y24.812 I-3.901 J13.136
G01 X39.498 Y24.701
G02X37.76 Y24.646 I-1.303 J13.702
X34.339 Y25.199 I0.427 J13.505
G01 X33.514 Y25.473
X32.707 Y25.799
G02X28.456 Y28.765 I5.5 J12.412
G01 X27.871 Y29.407
G02X26.832 Y30.798 I10.526 J8.946
G01 X26.385 Y31.54
G02X25.082 Y34.756 I11.807 J6.655
G01 X24.889 Y35.603
X24.75 Y36.461
G02X24.667 Y39.066 I13.723 J1.741
G01 X24.75 Y39.928
X24.89 Y40.787
X25.082 Y41.635
X25.329 Y42.467
X25.63 Y43.283
X25.982 Y44.078
X26.385 Y44.85
X26.834 Y45.594
X27.331 Y46.306
X27.873 Y46.985
G02X29.081 Y48.233 I10.174 J-8.64
G01 X29.743 Y48.795
X30.438 Y49.314
G02X33.513 Y50.918 I7.742 J-11.094
G01 X34.338 Y51.192
X35.18 Y51.413
X36.033 Y51.581
G02X37.763 Y51.747 I2.186 J-13.69
G01 X38.632 Y51.747
G00 Z30
X38.664 Y52.748
Z13
G01 Z7 F100
X39.595 Y52.689 F199.99
X40.52 Y52.569
G02X42.339 Y52.153 I-2.462 J-14.954
X44.088 Y51.509 I-3.984 J-13.519
X45.744 Y50.645 I-6.096 J-13.704
G01 X46.526 Y50.136
G02X49.866 Y46.903 I-8.395 J-12.014
X51.313 Y44.512 I-11.814 J-8.783
X52.485 Y40.978 I-13.044 J-6.287
G01 X52.634 Y40.057
G02X52.754 Y38.195 I-14.368 J-1.86
X52.487 Y35.415 I-14.595 J-0
G01 X52.278 Y34.505
X52.012 Y33.61
X51.69 Y32.734
G02X50.881 Y31.054 I-13.083 J5.265
X48.654 Y28.069 I-12.713 J7.161
G01 X47.985 Y27.419
G02X45.744 Y25.747 I-9.888 J10.915
G01 X44.931 Y25.29
G02X43.224 Y24.536 I-6.659 J12.768
X39.594 Y23.706 I-5.031 J13.65
G01 X38.662 Y23.647
G02X36.798 Y23.705 I-0.467 J14.973
G01 X35.875 Y23.825
G02X30.649 Y25.748 I2.326 J14.384
X25.994 Y30.254 I7.578 J12.486
G01 X25.513 Y31.051
X25.08 Y31.881
X24.702 Y32.734
X24.38 Y33.608
X24.115 Y34.503
G02X23.64 Y38.196 I14.07 J3.686
G01 X23.669 Y39.13
X23.758 Y40.057
X23.908 Y40.978
X24.114 Y41.889
X24.38 Y42.783
X24.703 Y43.659
X25.081 Y44.513
X25.513 Y45.341
X25.996 Y46.14
G02X28.41 Y48.975 I12.25 J-7.986
X29.867 Y50.136 I10.002 J-11.057
G01 X30.648 Y50.645
X31.462 Y51.102
X32.303 Y51.508
G02X35.874 Y52.569 I5.923 J-13.396
X37.731 Y52.747 I2.343 J-14.677
G01 X38.664 Y52.748
G00 Z30
X37.699 Y53.748
Z13
G01 Z7 F100
X38.696 Y53.748 F199.99
G02X40.681 Y53.557 I-0.462 J-15.217
X42.624 Y53.113 I-2.517 J-15.491
X44.494 Y52.424 I-4.204 J-14.292
G01 X45.394 Y51.99
X46.263 Y51.501
G02X50.044 Y48.282 I-8 J-13.227
G01 X50.668 Y47.502
G02X52.963 Y43.099 I-12.477 J-9.303
X53.723 Y37.2 I-14.748 J-4.898
G01 X53.628 Y36.207
X53.469 Y35.224
G02X52.618 Y32.36 I-15.37 J3.008
G01 X52.215 Y31.447
G02X51.236 Y29.712 I-13.794 J6.64
G01 X50.666 Y28.893
G02X47.099 Y25.437 I-12.431 J9.261
X44.495 Y23.971 I-8.819 J12.62
X40.679 Y22.838 I-6.338 J14.356
X37.698 Y22.647 I-2.497 J15.618
X35.715 Y22.838 I0.466 J15.231
X33.77 Y23.283 I2.609 J15.876
X31.001 Y24.405 I4.368 J14.757
X28.496 Y26.034 I7.135 J13.712
G01 X27.737 Y26.68
X27.02 Y27.374
X26.35 Y28.112
X25.727 Y28.892
G02X24.641 Y30.562 I12.259 J9.16
X23.775 Y32.359 I13.967 J7.838
X22.767 Y36.206 I14.557 J5.869
G01 X22.672 Y37.199
G02X22.671 Y39.194 I15.777 J1.005
X22.926 Y41.171 I15.532 J-0.998
G01 X23.147 Y42.143
X23.431 Y43.099
X23.776 Y44.035
G02X25.158 Y46.686 I14.575 J-5.912
G01 X25.728 Y47.503
G02X27.738 Y49.716 I12.562 J-9.39
X30.131 Y51.502 I10.51 J-11.585
X33.769 Y53.112 I8.086 J-13.356
G01 X34.735 Y53.365
X35.715 Y53.557
G02X37.699 Y53.748 I2.494 J-15.51
G00 Z30
X38.729 Y54.749
Z13
G01 Z7 F100
X39.788 Y54.681 F199.99
X40.841 Y54.545
G02X43.917 Y53.739 I-2.648 J-16.379
X47.672 Y51.779 I-5.761 J-15.614
G01 X48.523 Y51.144
G02X50.093 Y49.718 I-10.095 J-12.691
X51.47 Y48.101 I-12.169 J-11.758
G01 X52.076 Y47.232
X52.626 Y46.324
X53.117 Y45.382
G02X54.621 Y36.08 I-14.914 J-7.184
G01 X54.452 Y35.033
G02X53.546 Y31.985 I-16.251 J3.171
G01 X53.117 Y31.014
X52.626 Y30.073
X52.075 Y29.166
X51.468 Y28.295
X50.806 Y27.465
X50.093 Y26.678
X49.33 Y25.939
X48.523 Y25.252
X47.672 Y24.617
X46.783 Y24.038
G02X43.916 Y22.658 I-8.572 J14.141
G01 X42.908 Y22.324
X41.882 Y22.054
X40.84 Y21.851
G02X38.729 Y21.649 I-2.576 J15.79
X34.514 Y22.055 I-0.551 J16.352
G01 X33.487 Y22.324
X32.479 Y22.657
X31.495 Y23.057
X30.539 Y23.518
X29.614 Y24.038
G02X24.927 Y28.294 I8.604 J14.184
X23.279 Y31.014 I13.139 J9.82
X22.482 Y32.98 I14.884 J7.178
G01 X22.181 Y33.999
X21.943 Y35.033
X21.775 Y36.08
X21.674 Y37.136
G02X21.775 Y40.316 I16.69 J1.061
X22.181 Y42.398 I16.178 J-2.074
G01 X22.482 Y43.415
G02X23.28 Y45.383 I15.925 J-5.311
G01 X23.771 Y46.324
G02X26.303 Y49.718 I14.342 J-8.058
G01 X27.066 Y50.457
G02X29.614 Y52.359 I11.158 J-12.291
G01 X30.54 Y52.879
G02X32.479 Y53.739 I7.706 J-14.76
X35.556 Y54.545 I5.738 J-15.63
X38.729 Y54.749 I2.642 J-16.315
G00 Z30
X38.761 Y55.75
Z13
G01 Z7 F100
X39.885 Y55.677 F199.99
X41.001 Y55.533
X42.106 Y55.318
X43.195 Y55.033
G02X45.307 Y54.255 I-4.951 J-16.696
X50.004 Y51.198 I-7.09 J-16.031
G01 X50.813 Y50.414
G02X52.272 Y48.701 I-12.862 J-12.433
G01 X52.915 Y47.778
G02X54.475 Y44.788 I-14.714 J-9.579
X55.184 Y42.652 I-16.08 J-6.523
G01 X55.435 Y41.556
G02X55.722 Y39.324 I-17.353 J-3.365
X55.722 Y37.075 I-17.069 J-1.124
X55.435 Y34.842 I-17.624 J1.13
G01 X55.184 Y33.746
G02X51.569 Y26.817 I-16.984 J4.453
X49.147 Y24.47 I-13.372 J11.376
G01 X48.245 Y23.797
X47.302 Y23.183
X46.32 Y22.631
G02X38.761 Y20.649 I-8.118 J15.558
G01 X37.637 Y20.649
G02X35.397 Y20.865 I0.555 J17.487
G01 X34.292 Y21.08
X33.203 Y21.365
G02X31.091 Y22.143 I4.951 J16.696
X29.096 Y23.183 I7.223 J16.29
G01 X28.153 Y23.797
G02X26.394 Y25.2 I9.976 J14.311
X22.379 Y30.58 I11.787 J12.984
X21.214 Y33.746 I15.715 J7.58
X20.784 Y35.953 I16.636 J4.386
X20.676 Y39.324 I17.446 J2.246
X21.214 Y42.652 I17.325 J-1.093
X21.923 Y44.788 I16.789 J-4.387
G01 X22.379 Y45.818
X22.9 Y46.816
G02X24.126 Y48.701 I15.405 J-8.678
G01 X24.829 Y49.581
G02X26.394 Y51.198 I13.375 J-11.379
G01 X27.251 Y51.928
X28.153 Y52.601
X29.096 Y53.215
X30.078 Y53.767
X31.091 Y54.255
G02X33.203 Y55.033 I7.063 J-15.918
G01 X34.292 Y55.318
X35.397 Y55.533
G02X38.761 Y55.75 I2.802 J-17.254
G00 Z30
Z30
X38.224 Y38.734
Z12
G01 Z6 F100
X38.326 Y38.711 F199.99
G02X38.513 Y38.616 I-0.19 J-0.606
G01 X38.584 Y38.551
G02X38.693 Y38.361 I-0.429 J-0.372
G01 X38.72 Y38.248
G02X38.703 Y38.033 I-0.545 J-0.065
X38.588 Y37.817 I-0.577 J0.169
X38.524 Y37.758 I-0.237 J0.193
G01 X38.498 Y37.741
G02X38.104 Y37.649 I-0.326 J0.509
X37.908 Y37.718 I0.051 J0.459
G01 X37.833 Y37.771
G02X37.705 Y37.934 I0.338 J0.397
G01 X37.672 Y38.021
G02X37.645 Y38.22 I0.526 J0.172
G01 X37.65 Y38.268
G02X37.72 Y38.464 I0.554 J-0.087
G01 X37.773 Y38.537
X37.834 Y38.598
X37.938 Y38.673
X37.943 Y38.676
X38.033 Y38.71
X38.124 Y38.729
X38.224 Y38.734
G00 Z30
X38.251 Y39.737
Z12
G01 Z6 F100
X38.364 Y39.728 F199.99
G02X38.874 Y39.569 I-0.235 J-1.652
X39.503 Y38.991 I-0.654 J-1.343
X39.722 Y38.037 I-1.305 J-0.801
X39.563 Y37.487 I-1.537 J0.146
G01 X39.452 Y37.3
G02X39.223 Y37.036 I-1.241 J0.845
G01 X39.109 Y36.945
X38.991 Y36.869
G02X38.486 Y36.673 I-0.823 J1.373
X37.709 Y36.715 I-0.308 J1.5
X37.374 Y36.871 I0.437 J1.377
G01 X37.2 Y36.996
X37.065 Y37.121
X36.941 Y37.269
G02X36.713 Y37.729 I1.144 J0.853
G01 X36.656 Y37.98
G02X36.643 Y38.248 I1.486 J0.206
G01 X36.662 Y38.431
G02X36.773 Y38.807 I1.57 J-0.259
G01 X36.865 Y38.987
G02X37.184 Y39.362 I1.317 J-0.797
G01 X37.401 Y39.519
X37.52 Y39.585
G02X37.998 Y39.724 I0.661 J-1.383
G01 X38.251 Y39.737
G00 Z30
X38.266 Y40.739
Z12
G01 Z6 F100
X38.493 Y40.721 F199.99
X38.738 Y40.677
G02X39.323 Y40.465 I-0.607 J-2.59
X39.84 Y40.126 I-1.178 J-2.36
X40.541 Y39.164 I-1.698 J-1.973
X40.705 Y38.559 I-2.37 J-0.967
X40.719 Y37.94 I-2.501 J-0.366
G01 X40.673 Y37.646
X40.597 Y37.368
X40.459 Y37.037
G02X40.053 Y36.451 I-2.293 J1.155
G01 X39.891 Y36.29
G02X39.482 Y35.996 I-1.602 J1.798
X38.704 Y35.695 I-1.277 J2.146
G01 X38.419 Y35.651
G02X37.661 Y35.692 I-0.239 J2.599
X37.143 Y35.862 I0.6 J2.703
G01 X36.845 Y36.021
X36.567 Y36.221
G02X36.143 Y36.665 I1.644 J1.995
G01 X36.006 Y36.867
X35.896 Y37.072
G02X35.668 Y37.819 I2.422 J1.147
G01 X35.644 Y38.053
X35.644 Y38.3
G02X35.738 Y38.88 I2.593 J-0.122
G01 X35.853 Y39.203
X36.009 Y39.51
G02X36.864 Y40.365 I2.175 J-1.32
X37.31 Y40.583 I1.306 J-2.107
X37.885 Y40.72 I0.88 J-2.421
G01 X38.266 Y40.739
G00 Z30
X38.282 Y41.741
Z12
G01 Z6 F100
X38.622 Y41.714 F199.99
G02X39.293 Y41.561 I-0.443 J-3.49
X40.219 Y41.097 I-1.133 J-3.418
G01 X40.489 Y40.889
X40.735 Y40.658
G02X41.331 Y39.838 I-2.573 J-2.496
G01 X41.472 Y39.536
G02X41.717 Y37.844 I-3.312 J-1.343
G01 X41.653 Y37.436
X41.545 Y37.043
G02X40.798 Y35.781 I-3.323 J1.115
X40.299 Y35.334 I-2.538 J2.331
X39.661 Y34.961 I-2.263 J3.138
X38.91 Y34.715 I-1.477 J3.241
X38.12 Y34.638 I-0.749 J3.597
X37.463 Y34.711 I0.135 J4.208
G01 X37.21 Y34.775
G02X36.736 Y34.947 I0.845 J3.069
X35.584 Y35.776 I1.479 J3.271
G01 X35.344 Y36.063
G02X34.986 Y36.654 I2.867 J2.14
X34.68 Y37.656 I3.39 J1.583
G01 X34.644 Y38.001
X34.644 Y38.348
X34.676 Y38.687
X34.774 Y39.153
G02X35.148 Y40.023 I3.613 J-1.037
X36.341 Y41.22 I3.042 J-1.839
G01 X36.709 Y41.417
X36.968 Y41.524
X37.255 Y41.615
G02X38.282 Y41.741 I0.935 J-3.373
G00 Z30
X38.311 Y42.743
Z12
G01 Z6 F100
G02X39.184 Y42.631 I-0.148 J-4.614 F199.99
X40.023 Y42.351 I-1.027 J-4.475
G01 X40.417 Y42.154
X40.791 Y41.919
X41.139 Y41.652
G02X41.741 Y41.031 I-3.028 J-3.537
G01 X41.996 Y40.679
X42.217 Y40.306
X42.4 Y39.913
G02X42.653 Y39.064 I-4.294 J-1.741
X42.714 Y37.742 I-4.534 J-0.871
X42.495 Y36.723 I-4.604 J0.456
G01 X42.301 Y36.241
G02X41.536 Y35.104 I-4.065 J1.909
X40.528 Y34.288 I-3.245 J2.978
X38.613 Y33.659 I-2.345 J3.911
X37.593 Y33.678 I-0.431 J4.223
X36.935 Y33.814 I0.467 J3.92
X36.317 Y34.039 I1.197 J4.25
X35.195 Y34.761 I1.908 J4.198
X34.544 Y35.462 I3.165 J3.592
G01 X34.294 Y35.833
X34.082 Y36.226
X33.911 Y36.642
G02X33.645 Y37.949 I4.315 J1.558
X33.686 Y38.84 I4.649 J0.232
X34.28 Y40.523 I4.593 J-0.674
G01 X34.47 Y40.816
X34.715 Y41.13
X34.993 Y41.43
G02X36.281 Y42.323 I3.241 J-3.299
G01 X36.626 Y42.465
X36.997 Y42.583
G02X37.846 Y42.731 I1.249 J-4.659
G01 X38.311 Y42.743
G00 Z30
X38.338 Y43.744
Z12
G01 Z6 F100
G02X39.929 Y43.461 I-0.143 J-5.419 F199.99
X41.788 Y42.416 I-1.772 J-5.328
X42.834 Y41.229 I-3.607 J-4.232
G01 X43.103 Y40.773
X43.328 Y40.291
G02X43.711 Y37.64 I-5.149 J-2.097
X42.906 Y35.259 I-5.527 J0.542
X41.495 Y33.729 I-4.665 J2.887
G01 X41.042 Y33.429
G02X39.57 Y32.814 I-2.842 J4.733
G01 X39.125 Y32.719
G02X38.298 Y32.638 I-1.01 J6.058
X37.464 Y32.686 I-0.092 J5.656
X36.66 Y32.853 I0.631 J5.058
X35.905 Y33.128 I1.472 J5.216
G01 X35.549 Y33.305
G02X34.095 Y34.44 I2.665 J4.912
X32.969 Y36.304 I4.016 J3.698
X32.695 Y38.981 I5.24 J1.888
X32.888 Y39.839 I6.065 J-0.913
G01 X33.036 Y40.252
G02X33.42 Y41.034 I5.196 J-2.066
G01 X33.655 Y41.397
X33.953 Y41.779
G02X35.057 Y42.774 I4.172 J-3.519
G01 X35.491 Y43.042
X35.862 Y43.232
X36.284 Y43.406
X36.736 Y43.549
X37.203 Y43.655
G02X38.338 Y43.744 I0.972 J-5.116
G00 Z30
X38.376 Y44.745
Z12
G01 Z6 F100
X39.013 Y44.694 F199.99
X39.638 Y44.583
G02X40.834 Y44.186 I-1.489 J-6.488
X41.934 Y43.566 I-2.702 J-6.081
G01 X42.437 Y43.179
G02X44.253 Y40.675 I-4.231 J-4.979
G01 X44.421 Y40.215
X44.555 Y39.741
G02X44.712 Y38.801 I-6.4 J-1.552
G01 X44.74 Y38.169
G02X44.617 Y36.921 I-6.644 J0.024
G01 X44.467 Y36.313
X44.259 Y35.721
G02X43.447 Y34.275 I-6.066 J2.455
X41.557 Y32.57 I-5.215 J3.881
X39.823 Y31.846 I-3.352 J5.591
X38.759 Y31.664 I-1.647 J6.431
G01 X38.318 Y31.638
X37.816 Y31.648
G02X36.857 Y31.774 I0.412 J6.854
G01 X36.386 Y31.891
G02X35.493 Y32.217 I1.795 J6.303
G01 X35.07 Y32.427
X34.613 Y32.7
X34.18 Y33.007
G02X32.675 Y34.649 I4.089 J5.259
X32.031 Y35.955 I5.669 J3.607
X31.75 Y36.992 I5.795 J2.127
X31.65 Y38.596 I6.543 J1.213
G01 X31.705 Y39.125
G02X31.933 Y40.136 I6.889 J-1.022
G01 X32.107 Y40.624
G02X32.84 Y41.977 I6.125 J-2.443
X33.578 Y42.847 I5.483 J-3.903
X35 Y43.914 I4.585 J-4.63
G01 X35.443 Y44.141
X35.943 Y44.347
G02X37.02 Y44.639 I2.265 J-6.222
G01 X37.506 Y44.71
X37.943 Y44.743
X38.376 Y44.745
G00 Z30
X38.413 Y45.746
Z12
G01 Z6 F100
G02X39.861 Y45.56 I-0.226 J-7.496 F199.99
G01 X40.561 Y45.364
G02X42.508 Y44.388 I-2.366 J-7.15
X43.619 Y43.443 I-4.356 J-6.247
X44.356 Y42.554 I-5.538 J-5.341
G01 X44.673 Y42.068
X44.944 Y41.572
X45.18 Y41.055
X45.374 Y40.523
X45.528 Y39.978
G02X45.71 Y38.888 I-7.284 J-1.776
X44.52 Y34.066 I-7.53 J-0.699
G01 X44.249 Y33.676
X43.914 Y33.26
G02X43.128 Y32.474 I-5.699 J4.913
G01 X42.674 Y32.112
G02X39.364 Y30.731 I-4.48 J6.082
G01 X38.85 Y30.668
X38.338 Y30.638
X37.759 Y30.649
G02X36.113 Y30.929 I0.451 J7.629
X34.591 Y31.55 I2.043 J7.185
G01 X34.067 Y31.862
X33.571 Y32.214
G02X32.761 Y32.939 I4.617 J5.973
X32.136 Y33.673 I6.335 J6.027
G01 X31.834 Y34.108
G02X31.33 Y35.032 I6.059 J3.904
G01 X31.091 Y35.613
X30.903 Y36.205
X30.766 Y36.811
X30.677 Y37.431
G02X30.715 Y39.269 I7.578 J0.762
X30.978 Y40.433 I7.986 J-1.192
G01 X31.178 Y40.996
G02X32.023 Y42.555 I7.172 J-2.879
G01 X32.377 Y43.015
G02X34.018 Y44.488 I5.759 J-4.766
G01 X34.513 Y44.788
X35.024 Y45.05
G02X36.196 Y45.477 I3.132 J-6.775
G01 X36.837 Y45.623
X37.396 Y45.705
G02X38.413 Y45.746 I0.791 J-7.008
G00 Z30
X38.451 Y46.747
Z12
G01 Z6 F100
G02X44.335 Y44.143 I-0.27 J-8.559 F199.99
X45.532 Y42.583 I-6.138 J-5.949
G01 X45.84 Y42.02
G02X46.501 Y40.215 I-7.49 J-3.766
X46.707 Y38.982 I-8.048 J-1.978
G01 X46.743 Y38.375
X46.732 Y37.74
G02X46.568 Y36.458 I-8.469 J0.432
G01 X46.408 Y35.816
G02X45.36 Y33.523 I-8.078 J2.306
G01 X45.05 Y33.077
G02X44.263 Y32.165 I-6.894 J5.154
X43.269 Y31.307 I-6.158 J6.13
G01 X42.728 Y30.939
X42.157 Y30.613
G02X41.146 Y30.165 I-4.29 J8.317
X40.093 Y29.852 I-3.037 J8.291
X38.359 Y29.638 I-1.972 J8.853
G01 X37.702 Y29.65
X37.046 Y29.714
X36.424 Y29.822
G02X35.264 Y30.154 I1.808 J8.51
X34.114 Y30.672 I2.946 J8.077
G01 X33.522 Y31.024
G02X32.433 Y31.865 I4.632 J7.124
X31.675 Y32.651 I5.732 J6.286
G01 X31.335 Y33.075
G02X30.419 Y34.618 I6.752 J5.052
G01 X30.151 Y35.271
G02X29.782 Y36.631 I7.894 J2.871
G01 X29.682 Y37.33
G02X29.657 Y38.741 I8.403 J0.854
X29.849 Y40.077 I8.34 J-0.516
X30.848 Y42.58 I8.326 J-1.872
X32.05 Y44.147 I7.178 J-4.261
G01 X32.437 Y44.522
G02X33.467 Y45.323 I5.78 J-6.369
G01 X34.025 Y45.662
X34.605 Y45.959
G02X35.934 Y46.443 I3.507 J-7.564
G01 X36.653 Y46.607
X37.286 Y46.7
G02X38.451 Y46.747 I0.903 J-7.92
G00 Z30
X38.491 Y47.747
Z12
G01 Z6 F100
X39.31 Y47.683 F199.99
G02X41.495 Y47.159 I-1.196 J-9.808
G01 X42.062 Y46.93
G02X43.27 Y46.286 I-3.799 J-8.581
G01 X43.905 Y45.85
X44.502 Y45.368
X45.055 Y44.839
G02X46 Y43.699 I-6.783 J-6.584
X46.736 Y42.468 I-7.739 J-5.462
X47.618 Y39.75 I-8.537 J-4.272
X47.744 Y38.397 I-9.86 J-1.6
X47.669 Y36.982 I-9.682 J-0.196
G01 X47.548 Y36.255
G02X46.855 Y34.159 I-9.407 J1.947
X46.201 Y32.98 I-8.79 J4.105
G01 X45.853 Y32.48
X45.47 Y32
G02X42.622 Y29.727 I-7.253 J6.167
G01 X42.064 Y29.46
X41.493 Y29.227
X40.91 Y29.034
X40.318 Y28.877
X39.721 Y28.76
X39.118 Y28.684
G02X36.912 Y28.723 I-0.939 J9.273
X35.533 Y29.015 I1.287 J9.481
X34.326 Y29.455 I2.649 J9.142
X31.762 Y31.123 I3.895 J8.792
G01 X31.328 Y31.546
X30.914 Y32.002
X30.534 Y32.477
G02X29.869 Y33.499 I7.753 J5.772
X28.659 Y38.805 I8.324 J4.689
X29.99 Y43.093 I9.519 J-0.604
X30.837 Y44.293 I8.162 J-4.862
G01 X31.33 Y44.842
X31.767 Y45.265
G02X34.186 Y46.868 I6.475 J-7.145
G01 X34.891 Y47.161
G02X36.469 Y47.591 I3.354 J-9.2
X37.891 Y47.747 I1.741 J-9.311
G01 X38.491 Y47.747
G00 Z30
X38.53 Y48.747
Z12
G01 Z6 F100
G02X41.198 Y48.311 I-0.369 J-10.641 F199.99
G01 X41.84 Y48.099
X42.467 Y47.846
X43.07 Y47.556
G02X45.163 Y46.12 I-4.95 J-9.458
G01 X45.775 Y45.536
X46.338 Y44.906
G02X48.606 Y39.914 I-8.138 J-6.708
X48.745 Y38.42 I-10.462 J-1.726
G01 X48.734 Y37.668
G02X47.391 Y33.013 I-10.519 J0.513
G01 X47.04 Y32.435
X46.655 Y31.882
G02X45.289 Y30.379 I-8.442 J6.3
G01 X44.776 Y29.941
G02X43.668 Y29.166 I-6.817 J8.567
G01 X43.083 Y28.839
X42.469 Y28.545
X41.839 Y28.289
X41.196 Y28.076
G02X39.212 Y27.688 I-2.958 J9.863
G01 X38.397 Y27.639
G02X36.777 Y27.732 I-0.213 J10.441
G01 X35.978 Y27.872
G02X34.547 Y28.288 I2.281 J10.517
G01 X33.921 Y28.541
X33.311 Y28.835
G02X31.094 Y30.38 I4.925 J9.43
G01 X30.609 Y30.852
X30.154 Y31.353
X29.733 Y31.878
X29.349 Y32.43
G02X28.411 Y34.23 I8.929 J5.797
X27.726 Y36.843 I9.705 J3.94
X27.661 Y38.871 I10.41 J1.348
G01 X27.726 Y39.54
G02X28.41 Y42.153 I10.356 J-1.315
X30.61 Y45.537 I9.751 J-3.932
X31.612 Y46.445 I7.514 J-7.285
X34.548 Y48.101 I6.57 J-8.219
X37.183 Y48.703 I3.687 J-10.072
G01 X37.859 Y48.747
X38.53 Y48.747
G00 Z30
X38.565 Y49.747
Z12
G01 Z6 F100
G02X40.039 Y49.602 I-0.455 J-12.195 F199.99
X42.185 Y49.039 I-1.874 J-11.516
G01 X42.872 Y48.762
X43.538 Y48.441
G02X48.606 Y43.208 I-5.355 J-10.257
X49.594 Y40.078 I-10.484 J-5.03
X49.746 Y38.442 I-11.434 J-1.887
X49.538 Y35.986 I-11.654 J-0.249
X49.161 Y34.553 I-11.295 J2.205
G01 X48.906 Y33.857
X48.605 Y33.18
X48.263 Y32.523
G02X47.457 Y31.284 I-10.223 J5.768
X46.494 Y30.154 I-9.322 J6.968
G01 X45.963 Y29.639
X45.4 Y29.159
G02X44.187 Y28.311 I-7.679 J9.693
G01 X43.544 Y27.951
X42.874 Y27.63
X42.185 Y27.351
G02X40.037 Y26.786 I-4.07 J11.108
G01 X39.306 Y26.692
G02X34.906 Y27.116 I-1.121 J11.406
G01 X34.202 Y27.349
X33.516 Y27.627
G02X32.202 Y28.313 I4.806 J10.807
G01 X31.581 Y28.717
X30.988 Y29.16
G02X29.891 Y30.157 I6.895 J8.689
G01 X29.393 Y30.704
X28.932 Y31.28
G02X28.128 Y32.519 I9.186 J6.841
G01 X27.784 Y33.177
X27.484 Y33.855
X27.227 Y34.551
X27.017 Y35.261
G02X26.734 Y36.716 I11.596 J3.01
G01 X26.663 Y37.453
X26.639 Y38.195
X26.663 Y38.936
X26.734 Y39.67
X26.854 Y40.403
G02X27.227 Y41.835 I11.077 J-2.12
X27.784 Y43.209 I11.193 J-3.737
G01 X28.128 Y43.868
G02X29.395 Y45.687 I9.916 J-5.556
X30.425 Y46.748 I8.547 J-7.267
G01 X30.989 Y47.228
X31.582 Y47.672
G02X33.517 Y48.762 I6.581 J-9.421
G01 X34.203 Y49.04
X34.907 Y49.274
G02X36.351 Y49.604 I3.315 J-11.183
G01 X37.087 Y49.699
X37.827 Y49.747
X38.565 Y49.747
G00 Z30
X38.599 Y50.747
Z12
G01 Z6 F100
G02X40.199 Y50.59 I-0.437 J-12.687 F199.99
X43.277 Y49.678 I-2.007 J-12.425
X45.38 Y48.494 I-5.11 J-11.537
X48.72 Y45.043 I-7.218 J-10.328
X49.509 Y43.641 I-10.444 J-6.8
X50.521 Y35.797 I-11.341 J-5.45
X50.112 Y34.24 I-12.214 J2.376
G01 X49.834 Y33.482
G02X48.259 Y30.686 I-11.694 J4.746
X47.214 Y29.459 I-10.189 J7.619
G01 X46.637 Y28.899
X46.024 Y28.377
X45.379 Y27.896
G02X44.006 Y27.064 I-6.862 J9.775
G01 X43.279 Y26.715
G02X41.767 Y26.159 I-5.119 J11.588
G01 X40.987 Y25.954
X40.198 Y25.799
X39.402 Y25.696
X38.597 Y25.646
G02X35.401 Y25.953 I-0.419 J12.425
X32.386 Y27.063 I2.804 J12.268
G01 X31.684 Y27.458
G02X30.365 Y28.379 I6.475 J10.679
X29.173 Y29.461 I7.694 J9.674
X27.257 Y32.029 I8.888 J8.63
X26.049 Y35.009 I10.949 J6.173
G01 X25.871 Y35.794
X25.742 Y36.588
X25.665 Y37.39
X25.639 Y38.196
X25.665 Y39.001
X25.742 Y39.799
X25.872 Y40.595
X26.05 Y41.382
X26.278 Y42.151
X26.557 Y42.907
G02X27.257 Y44.359 I11.607 J-4.701
G01 X27.673 Y45.048
X28.132 Y45.707
G02X29.175 Y46.932 I10.156 J-7.59
X31.01 Y48.493 I9.104 J-8.843
G01 X31.684 Y48.932
X32.385 Y49.326
X33.112 Y49.677
X33.858 Y49.979
G02X37.795 Y50.747 I4.328 J-11.714
G01 X38.599 Y50.747
G00 Z30
X38.632 Y51.747
Z12
G01 Z6 F100
G02X42.878 Y50.92 I-0.459 J-13.673 F199.99
X44.466 Y50.215 I-4.614 J-12.535
X45.953 Y49.315 I-6.178 J-11.886
X47.936 Y47.625 I-7.755 J-11.108
G01 X48.521 Y46.982
G02X51.063 Y42.466 I-10.325 J-8.785
X51.725 Y37.326 I-12.914 J-4.275
G01 X51.642 Y36.462
X51.504 Y35.606
X51.31 Y34.759
X51.062 Y33.925
X50.762 Y33.108
X50.411 Y32.314
X50.009 Y31.545
X49.558 Y30.8
X49.061 Y30.088
X48.518 Y29.408
X47.934 Y28.764
G02X45.225 Y26.602 I-9.731 J9.415
G01 X44.468 Y26.177
G02X42.878 Y25.474 I-6.29 J12.077
G01 X42.052 Y25.2
G02X40.359 Y24.812 I-3.901 J13.136
G01 X39.498 Y24.701
G02X37.76 Y24.646 I-1.303 J13.702
X34.339 Y25.199 I0.427 J13.505
G01 X33.514 Y25.473
X32.707 Y25.799
G02X28.456 Y28.765 I5.5 J12.412
G01 X27.871 Y29.407
G02X26.832 Y30.798 I10.526 J8.946
G01 X26.385 Y31.54
G02X25.082 Y34.756 I11.807 J6.655
G01 X24.889 Y35.603
X24.75 Y36.461
